(Generated by PartKam Version 0.05)

G21 G90 G40

(follow path 1)
G0 Z3
T0 M6
G17
M3
G0 X0.07614213197969544 Y0.07614213197969544
G1 Z-1 F800
G1 X72.46446700507614 Y0.07614213197969544 F400
G1 X72.46446700507614 Y57.22335025380711
G1 X0.07614213197969544 Y57.22335025380711
G1 X0.07614213197969544 Y0.07614213197969544
G0 Z3
G0 X27.839847715736042 Y30.730456852791878
G1 Z-1 F800
G1 X27.840101522842637 Y29.10913705583756 F400
G1 X29.45939086294416 Y29.10913705583756
G1 X29.45939086294416 Y30.730964467005077
G1 X27.840101522842637 Y30.730964467005077
G0 Z3
G0 X25.301269035532997 Y29.919035532994926
G1 Z-1 F800
G3 X25.36294416243655 Y29.609137055837564 I0.8096446700507615 J0 F400
G3 X25.538071065989847 Y29.34517766497462 I0.748730964467005 J0.30964467005076146
G3 X25.80203045685279 Y29.17005076142132 I0.5736040609137056 J0.5736040609137056
G3 X26.111675126903556 Y29.10913705583756 I0.30964467005076146 J0.748730964467005
G3 X26.421319796954315 Y29.17005076142132 I0 J0.8096446700507615
G3 X26.682741116751266 Y29.34517766497462 I-0.30964467005076146 J0.748730964467005
G3 X26.860406091370557 Y29.609137055837564 I-0.5736040609137056 J0.5736040609137056
G3 X26.921319796954315 Y29.918781725888323 I-0.748730964467005 J0.30964467005076146
G3 X26.860406091370557 Y30.22842639593909 I-0.8096446700507615 J0
G3 X26.682741116751266 Y30.492385786802032 I-0.748730964467005 J-0.30964467005076146
G3 X26.421319796954315 Y30.66751269035533 I-0.5736040609137056 J-0.5736040609137056
G3 X26.111675126903556 Y30.728426395939085 I-0.30964467005076146 J-0.748730964467005
G3 X25.80203045685279 Y30.66751269035533 I0 J-0.8096446700507615
G3 X25.538071065989847 Y30.492385786802032 I0.30964467005076146 J-0.748730964467005
G3 X25.36294416243655 Y30.22842639593909 I0.5736040609137056 J-0.5736040609137056
G3 X25.302030456852794 Y29.918781725888323 I0.748730964467005 J-0.30964467005076146
G0 Z3
G0 X22.761421319796955 Y29.919035532994926
G1 Z-1 F800
G3 X22.82233502538071 Y29.609137055837564 I0.8096446700507615 J0 F400
G3 X22.997461928934012 Y29.34517766497462 I0.748730964467005 J0.30964467005076146
G3 X23.261421319796955 Y29.17005076142132 I0.5736040609137056 J0.5736040609137056
G3 X23.571065989847714 Y29.10913705583756 I0.30964467005076146 J0.748730964467005
G3 X23.88071065989848 Y29.17005076142132 I0 J0.8096446700507615
G3 X24.144670050761423 Y29.34517766497462 I-0.30964467005076146 J0.748730964467005
G3 X24.31979695431472 Y29.609137055837564 I-0.5736040609137056 J0.5736040609137056
G3 X24.380710659898476 Y29.918781725888323 I-0.748730964467005 J0.30964467005076146
G3 X24.31979695431472 Y30.22842639593909 I-0.8096446700507615 J0
G3 X24.144670050761423 Y30.492385786802032 I-0.748730964467005 J-0.30964467005076146
G3 X23.88071065989848 Y30.66751269035533 I-0.5736040609137056 J-0.5736040609137056
G3 X23.571065989847714 Y30.728426395939085 I-0.30964467005076146 J-0.748730964467005
G3 X23.261421319796955 Y30.66751269035533 I0 J-0.8096446700507615
G3 X22.997461928934012 Y30.492385786802032 I0.30964467005076146 J-0.748730964467005
G3 X22.82233502538071 Y30.22842639593909 I0.5736040609137056 J-0.5736040609137056
G3 X22.761421319796952 Y29.918781725888323 I0.748730964467005 J-0.30964467005076146
G0 Z3
G0 X41.98451776649746 Y3.251269035532995
G1 Z-1 F800
G1 X41.984771573604064 Y5.791878172588833 F400
G1 X39.444162436548226 Y5.791878172588833
G1 X39.444162436548226 Y3.251269035532995
G1 X41.984771573604064 Y3.251269035532995
G0 Z3
G0 X34.36598984771574 Y4.519796954314721
G1 Z-1 F800
G3 X34.46192893401015 Y4.032994923857868 I1.2690355329949239 J0 F400
G3 X34.73857868020305 Y3.6218274111675126 I1.1725888324873095 J0.4847715736040609
G3 X35.1497461928934 Y3.347715736040609 I0.8984771573604061 J0.8984771573604061
G3 X35.63705583756345 Y3.248730964467005 I0.4847715736040609 J1.1725888324873095
G3 X36.121827411167516 Y3.347715736040609 I0 J1.2690355329949239
G3 X36.53299492385787 Y3.6218274111675126 I-0.4847715736040609 J1.1725888324873095
G3 X36.809644670050766 Y4.032994923857868 I-0.8984771573604061 J0.8984771573604061
G3 X36.90609137055838 Y4.520304568527918 I-1.1725888324873095 J0.4847715736040609
G3 X36.809644670050766 Y5.00507614213198 I-1.2690355329949239 J0
G3 X36.53299492385787 Y5.4187817258883255 I-1.1725888324873095 J-0.4847715736040609
G3 X36.121827411167516 Y5.692893401015229 I-0.8984771573604061 J-0.8984771573604061
G3 X35.63705583756345 Y5.789340101522843 I-0.4847715736040609 J-1.1725888324873095
G3 X35.1497461928934 Y5.692893401015229 I0 J-1.2690355329949239
G3 X34.73857868020305 Y5.4187817258883255 I0.4847715736040609 J-1.1725888324873095
G3 X34.46192893401015 Y5.00507614213198 I0.8984771573604061 J-0.8984771573604061
G3 X34.36548223350254 Y4.520304568527918 I1.1725888324873095 J-0.4847715736040609
G0 Z3
G0 X15.786548223350254 Y29.284010152284264
G1 Z-1 F800
G3 X15.847715736040609 Y28.977157360406093 I0.799492385786802 J0 F400
G3 X16.02030456852792 Y28.718274111675125 I0.7385786802030457 J0.3071065989847716
G3 X16.279187817258883 Y28.545685279187815 I0.565989847715736 J0.565989847715736
G3 X16.586294416243653 Y28.48477157360406 I0.3071065989847716 J0.7385786802030457
G3 X16.893401015228427 Y28.545685279187815 I0 J0.799492385786802
G3 X17.15228426395939 Y28.718274111675125 I-0.3071065989847716 J0.7385786802030457
G3 X17.3248730964467 Y28.977157360406093 I-0.565989847715736 J0.565989847715736
G3 X17.385786802030456 Y29.284263959390863 I-0.7385786802030457 J0.3071065989847716
G3 X17.3248730964467 Y29.588832487309645 I-0.799492385786802 J0
G3 X17.15228426395939 Y29.850253807106597 I-0.7385786802030457 J-0.3071065989847716
G3 X16.893401015228427 Y30.022842639593907 I-0.565989847715736 J-0.565989847715736
G3 X16.586294416243653 Y30.08375634517766 I-0.3071065989847716 J-0.7385786802030457
G3 X16.279187817258883 Y30.022842639593907 I0 J-0.799492385786802
G3 X16.02030456852792 Y29.850253807106597 I0.3071065989847716 J-0.7385786802030457
G3 X15.847715736040609 Y29.588832487309645 I0.565989847715736 J-0.565989847715736
G3 X15.786802030456853 Y29.284263959390863 I0.7385786802030457 J-0.3071065989847716
G0 Z3
G0 X18.286294416243656 Y29.284010152284264
G1 Z-1 F800
G3 X18.34771573604061 Y28.977157360406093 I0.799492385786802 J0 F400
G3 X18.52030456852792 Y28.718274111675125 I0.7385786802030457 J0.3071065989847716
G3 X18.779187817258883 Y28.545685279187815 I0.565989847715736 J0.565989847715736
G3 X19.086294416243653 Y28.48477157360406 I0.3071065989847716 J0.7385786802030457
G3 X19.393401015228427 Y28.545685279187815 I0 J0.799492385786802
G3 X19.65228426395939 Y28.718274111675125 I-0.3071065989847716 J0.7385786802030457
G3 X19.8248730964467 Y28.977157360406093 I-0.565989847715736 J0.565989847715736
G3 X19.885786802030456 Y29.284263959390863 I-0.7385786802030457 J0.3071065989847716
G3 X19.8248730964467 Y29.588832487309645 I-0.799492385786802 J0
G3 X19.65228426395939 Y29.850253807106597 I-0.7385786802030457 J-0.3071065989847716
G3 X19.393401015228427 Y30.022842639593907 I-0.565989847715736 J-0.565989847715736
G3 X19.086294416243653 Y30.08375634517766 I-0.3071065989847716 J-0.7385786802030457
G3 X18.779187817258883 Y30.022842639593907 I0 J-0.799492385786802
G3 X18.52030456852792 Y29.850253807106597 I0.3071065989847716 J-0.7385786802030457
G3 X18.34771573604061 Y29.588832487309645 I0.565989847715736 J-0.565989847715736
G3 X18.28680203045685 Y29.284263959390863 I0.7385786802030457 J-0.3071065989847716
G0 Z3
G0 X6.261928934010152 Y19.124365482233504
G1 Z-1 F800
G3 X6.322335025380711 Y18.81725888324873 I0.799492385786802 J0 F400
G3 X6.49492385786802 Y18.558375634517766 I0.7385786802030457 J0.3071065989847716
G3 X6.756345177664974 Y18.385786802030456 I0.565989847715736 J0.565989847715736
G3 X7.060913705583757 Y18.3248730964467 I0.3071065989847716 J0.7385786802030457
G3 X7.368020304568528 Y18.385786802030456 I0 J0.799492385786802
G3 X7.626903553299492 Y18.558375634517766 I-0.3071065989847716 J0.7385786802030457
G3 X7.802030456852792 Y18.81725888324873 I-0.565989847715736 J0.565989847715736
G3 X7.862944162436548 Y19.124365482233504 I-0.7385786802030457 J0.3071065989847716
G3 X7.802030456852792 Y19.431472081218274 I-0.799492385786802 J0
G3 X7.626903553299492 Y19.690355329949238 I-0.7385786802030457 J-0.3071065989847716
G3 X7.368020304568528 Y19.86294416243655 I-0.565989847715736 J-0.565989847715736
G3 X7.060913705583757 Y19.923857868020306 I-0.3071065989847716 J-0.7385786802030457
G3 X6.756345177664974 Y19.86294416243655 I0 J-0.799492385786802
G3 X6.49492385786802 Y19.690355329949238 I0.3071065989847716 J-0.7385786802030457
G3 X6.322335025380711 Y19.431472081218274 I0.565989847715736 J-0.565989847715736
G3 X6.261421319796955 Y19.124365482233504 I0.7385786802030457 J-0.3071065989847716
G0 Z3
G0 X3.7619289340101525 Y19.124365482233504
G1 Z-1 F800
G3 X3.8223350253807107 Y18.81725888324873 I0.799492385786802 J0 F400
G3 X3.99746192893401 Y18.558375634517766 I0.7385786802030457 J0.3071065989847716
G3 X4.256345177664975 Y18.385786802030456 I0.565989847715736 J0.565989847715736
G3 X4.560913705583756 Y18.3248730964467 I0.3071065989847716 J0.7385786802030457
G3 X4.868020304568528 Y18.385786802030456 I0 J0.799492385786802
G3 X5.126903553299492 Y18.558375634517766 I-0.3071065989847716 J0.7385786802030457
G3 X5.302030456852792 Y18.81725888324873 I-0.565989847715736 J0.565989847715736
G3 X5.362944162436548 Y19.124365482233504 I-0.7385786802030457 J0.3071065989847716
G3 X5.302030456852792 Y19.431472081218274 I-0.799492385786802 J0
G3 X5.126903553299492 Y19.690355329949238 I-0.7385786802030457 J-0.3071065989847716
G3 X4.868020304568528 Y19.86294416243655 I-0.565989847715736 J-0.565989847715736
G3 X4.560913705583756 Y19.923857868020306 I-0.3071065989847716 J-0.7385786802030457
G3 X4.256345177664975 Y19.86294416243655 I0 J-0.799492385786802
G3 X3.99746192893401 Y19.690355329949238 I0.3071065989847716 J-0.7385786802030457
G3 X3.8223350253807107 Y19.431472081218274 I0.565989847715736 J-0.565989847715736
G3 X3.761421319796954 Y19.124365482233504 I0.7385786802030457 J-0.3071065989847716
G0 Z3
G0 X9.436802030456853 Y9.5997461928934
G1 Z-1 F800
G3 X9.49746192893401 Y9.294416243654823 I0.799492385786802 J0 F400
G3 X9.670050761421319 Y9.032994923857867 I0.7385786802030457 J0.3071065989847716
G3 X9.931472081218274 Y8.860406091370558 I0.565989847715736 J0.565989847715736
G3 X10.236040609137056 Y8.799492385786802 I0.3071065989847716 J0.7385786802030457
G3 X10.543147208121828 Y8.860406091370558 I0 J0.799492385786802
G3 X10.80203045685279 Y9.032994923857867 I-0.3071065989847716 J0.7385786802030457
G3 X10.974619289340101 Y9.294416243654823 I-0.565989847715736 J0.565989847715736
G3 X11.035532994923859 Y9.598984771573605 I-0.7385786802030457 J0.3071065989847716
G3 X10.974619289340101 Y9.906091370558375 I-0.799492385786802 J0
G3 X10.80203045685279 Y10.164974619289339 I-0.7385786802030457 J-0.3071065989847716
G3 X10.543147208121828 Y10.33756345177665 I-0.565989847715736 J-0.565989847715736
G3 X10.236040609137056 Y10.398477157360407 I-0.3071065989847716 J-0.7385786802030457
G3 X9.931472081218274 Y10.33756345177665 I0 J-0.799492385786802
G3 X9.670050761421319 Y10.164974619289339 I0.3071065989847716 J-0.7385786802030457
G3 X9.49746192893401 Y9.906091370558375 I0.565989847715736 J-0.565989847715736
G3 X9.436548223350254 Y9.598984771573605 I0.7385786802030457 J-0.3071065989847716
G0 Z3
G0 X9.436802030456853 Y12.099492385786801
G1 Z-1 F800
G3 X9.49746192893401 Y11.794416243654823 I0.799492385786802 J0 F400
G3 X9.670050761421319 Y11.532994923857869 I0.7385786802030457 J0.3071065989847716
G3 X9.931472081218274 Y11.360406091370558 I0.565989847715736 J0.565989847715736
G3 X10.236040609137056 Y11.299492385786802 I0.3071065989847716 J0.7385786802030457
G3 X10.543147208121828 Y11.360406091370558 I0 J0.799492385786802
G3 X10.80203045685279 Y11.532994923857869 I-0.3071065989847716 J0.7385786802030457
G3 X10.974619289340101 Y11.794416243654823 I-0.565989847715736 J0.565989847715736
G3 X11.035532994923859 Y12.098984771573605 I-0.7385786802030457 J0.3071065989847716
G3 X10.974619289340101 Y12.406091370558377 I-0.799492385786802 J0
G3 X10.80203045685279 Y12.664974619289339 I-0.7385786802030457 J-0.3071065989847716
G3 X10.543147208121828 Y12.83756345177665 I-0.565989847715736 J-0.565989847715736
G3 X10.236040609137056 Y12.898477157360407 I-0.3071065989847716 J-0.7385786802030457
G3 X9.931472081218274 Y12.83756345177665 I0 J-0.799492385786802
G3 X9.670050761421319 Y12.664974619289339 I0.3071065989847716 J-0.7385786802030457
G3 X9.49746192893401 Y12.406091370558377 I0.565989847715736 J-0.565989847715736
G3 X9.436548223350254 Y12.098984771573605 I0.7385786802030457 J-0.3071065989847716
G0 Z3
G0 X7.860913705583756 Y23.405329949238578
G1 Z-1 F800
G1 X7.8604060913705585 Y25.00507614213198 F400
G1 X6.261421319796955 Y25.00507614213198
G1 X6.261421319796955 Y23.406091370558375
G1 X7.8604060913705585 Y23.406091370558375
G0 Z3
G0 X3.7619289340101525 Y24.204060913705582
G1 Z-1 F800
G3 X3.8223350253807107 Y23.898477157360407 I0.799492385786802 J0 F400
G3 X3.99746192893401 Y23.639593908629443 I0.7385786802030457 J0.3071065989847716
G3 X4.256345177664975 Y23.464467005076145 I0.565989847715736 J0.565989847715736
G3 X4.560913705583756 Y23.403553299492387 I0.3071065989847716 J0.7385786802030457
G3 X4.868020304568528 Y23.464467005076145 I0 J0.799492385786802
G3 X5.126903553299492 Y23.639593908629443 I-0.3071065989847716 J0.7385786802030457
G3 X5.302030456852792 Y23.898477157360407 I-0.565989847715736 J0.565989847715736
G3 X5.362944162436548 Y24.203045685279186 I-0.7385786802030457 J0.3071065989847716
G3 X5.302030456852792 Y24.51015228426396 I-0.799492385786802 J0
G3 X5.126903553299492 Y24.769035532994927 I-0.7385786802030457 J-0.3071065989847716
G3 X4.868020304568528 Y24.944162436548222 I-0.565989847715736 J-0.565989847715736
G3 X4.560913705583756 Y25.00507614213198 I-0.3071065989847716 J-0.7385786802030457
G3 X4.256345177664975 Y24.944162436548222 I0 J-0.799492385786802
G3 X3.99746192893401 Y24.769035532994927 I0.3071065989847716 J-0.7385786802030457
G3 X3.8223350253807107 Y24.51015228426396 I0.565989847715736 J-0.565989847715736
G3 X3.761421319796954 Y24.203045685279186 I0.7385786802030457 J-0.3071065989847716
G0 Z3
G0 X46.05862944162437 Y42.101522842639596
G1 Z-1 F800
G1 X46.05837563451777 Y43.9010152284264 F400
G1 X44.26142131979695 Y43.9010152284264
G1 X44.26142131979695 Y42.101522842639596
G1 X46.05837563451777 Y42.101522842639596
G0 Z3
G0 X41.72055837563452 Y42.9994923857868
G1 Z-1 F800
G3 X41.78934010152284 Y42.65482233502538 I0.901015228426396 J0 F400
G3 X41.984771573604064 Y42.36294416243655 I0.83248730964467 J0.3451776649746193
G3 X42.27664974619289 Y42.16751269035533 I0.6370558375634517 J0.6370558375634517
G3 X42.621827411167516 Y42.098984771573605 I0.3451776649746193 J0.83248730964467
G3 X42.964467005076145 Y42.16751269035533 I0 J0.901015228426396
G3 X43.25634517766497 Y42.36294416243655 I-0.3451776649746193 J0.83248730964467
G3 X43.45177664974619 Y42.65482233502538 I-0.6370558375634517 J0.6370558375634517
G3 X43.52030456852792 Y43 I-0.83248730964467 J0.3451776649746193
G3 X43.45177664974619 Y43.34263959390863 I-0.901015228426396 J0
G3 X43.25634517766497 Y43.63705583756345 I-0.83248730964467 J-0.3451776649746193
G3 X42.964467005076145 Y43.82994923857868 I-0.6370558375634517 J-0.6370558375634517
G3 X42.621827411167516 Y43.898477157360404 I-0.3451776649746193 J-0.83248730964467
G3 X42.27664974619289 Y43.82994923857868 I0 J-0.901015228426396
G3 X41.984771573604064 Y43.63705583756345 I0.3451776649746193 J-0.83248730964467
G3 X41.78934010152284 Y43.34263959390863 I0.6370558375634517 J-0.6370558375634517
G3 X41.72081218274112 Y43 I0.83248730964467 J-0.3451776649746193
G0 Z3
G0 X17.731472081218275 Y50.87309644670051
G1 Z-1 F800
G3 X17.789340101522843 Y50.58121827411168 I0.7588832487309645 J0 F400
G3 X17.954314720812185 Y50.33502538071066 I0.7030456852791878 J0.2918781725888325
G3 X18.200507614213198 Y50.17005076142132 I0.5380710659898478 J0.5380710659898478
G3 X18.492385786802032 Y50.11421319796955 I0.2918781725888325 J0.7030456852791878
G3 X18.781725888324875 Y50.17005076142132 I0 J0.7588832487309645
G3 X19.027918781725887 Y50.33502538071066 I-0.2918781725888325 J0.7030456852791878
G3 X19.192893401015226 Y50.58121827411168 I-0.5380710659898478 J0.5380710659898478
G3 X19.251269035532992 Y50.87309644670051 I-0.7030456852791878 J0.2918781725888325
G3 X19.192893401015226 Y51.16497461928934 I-0.7588832487309645 J0
G3 X19.027918781725887 Y51.411167512690355 I-0.7030456852791878 J-0.2918781725888325
G3 X18.781725888324875 Y51.576142131979694 I-0.5380710659898478 J-0.5380710659898478
G3 X18.492385786802032 Y51.631979695431475 I-0.2918781725888325 J-0.7030456852791878
G3 X18.200507614213198 Y51.576142131979694 I0 J-0.7588832487309645
G3 X17.954314720812185 Y51.411167512690355 I0.2918781725888325 J-0.7030456852791878
G3 X17.789340101522843 Y51.16497461928934 I0.5380710659898478 J-0.5380710659898478
G3 X17.730964467005077 Y50.87309644670051 I0.7030456852791878 J-0.2918781725888325
G0 Z3
G0 X20.271319796954316 Y50.87309644670051
G1 Z-1 F800
G3 X20.329949238578678 Y50.58121827411168 I0.7588832487309645 J0 F400
G3 X20.49492385786802 Y50.33502538071066 I0.7030456852791878 J0.2918781725888325
G3 X20.741116751269036 Y50.17005076142132 I0.5380710659898478 J0.5380710659898478
G3 X21.03045685279188 Y50.11421319796955 I0.2918781725888325 J0.7030456852791878
G3 X21.32233502538071 Y50.17005076142132 I0 J0.7588832487309645
G3 X21.568527918781726 Y50.33502538071066 I-0.2918781725888325 J0.7030456852791878
G3 X21.733502538071065 Y50.58121827411168 I-0.5380710659898478 J0.5380710659898478
G3 X21.791878172588834 Y50.87309644670051 I-0.7030456852791878 J0.2918781725888325
G3 X21.733502538071065 Y51.16497461928934 I-0.7588832487309645 J0
G3 X21.568527918781726 Y51.411167512690355 I-0.7030456852791878 J-0.2918781725888325
G3 X21.32233502538071 Y51.576142131979694 I-0.5380710659898478 J-0.5380710659898478
G3 X21.03045685279188 Y51.631979695431475 I-0.2918781725888325 J-0.7030456852791878
G3 X20.741116751269036 Y51.576142131979694 I0 J-0.7588832487309645
G3 X20.49492385786802 Y51.411167512690355 I0.2918781725888325 J-0.7030456852791878
G3 X20.329949238578678 Y51.16497461928934 I0.5380710659898478 J-0.5380710659898478
G3 X20.271573604060915 Y50.87309644670051 I0.7030456852791878 J-0.2918781725888325
G0 Z3
G0 X16.70989847715736 Y51.63401015228426
G1 Z-1 F800
G1 X15.190355329949238 Y51.63451776649747 F400
G1 X15.190355329949238 Y50.11421319796955
G1 X16.710659898477157 Y50.11421319796955
G1 X16.710659898477157 Y51.63451776649747
G0 Z3
G0 X45.3753807106599 Y50.023604060913705
G1 Z-1 F800
G1 X45.37563451776649 Y51.7258883248731 F400
G1 X43.67258883248731 Y51.7258883248731
G1 X43.67258883248731 Y50.022842639593904
G1 X45.37563451776649 Y50.022842639593904
G0 Z3
G0 X6.425888324873096 Y38.80989847715736
G1 Z-1 F800
G1 X3.885786802030457 Y38.80964467005076 F400
G1 X3.885786802030457 Y36.26903553299493
G1 X6.426395939086294 Y36.26903553299493
G1 X6.426395939086294 Y38.80964467005076
G0 Z3
G0 X3.886802030456853 Y32.45888324873096
G1 Z-1 F800
G3 X3.9847715736040605 Y31.972081218274113 I1.2690355329949239 J0 F400
G3 X4.258883248730965 Y31.560913705583754 I1.1725888324873095 J0.4847715736040609
G3 X4.67005076142132 Y31.286802030456855 I0.8984771573604061 J0.8984771573604061
G3 X5.15736040609137 Y31.18781725888325 I0.4847715736040609 J1.1725888324873095
G3 X5.6421319796954315 Y31.286802030456855 I0 J1.2690355329949239
G3 X6.055837563451777 Y31.560913705583754 I-0.4847715736040609 J1.1725888324873095
G3 X6.32994923857868 Y31.972081218274113 I-0.8984771573604061 J0.8984771573604061
G3 X6.426395939086294 Y32.45939086294416 I-1.1725888324873095 J0.4847715736040609
G3 X6.32994923857868 Y32.944162436548226 I-1.2690355329949239 J0
G3 X6.055837563451777 Y33.357868020304565 I-1.1725888324873095 J-0.4847715736040609
G3 X5.6421319796954315 Y33.63197969543147 I-0.8984771573604061 J-0.8984771573604061
G3 X5.15736040609137 Y33.72842639593909 I-0.4847715736040609 J-1.1725888324873095
G3 X4.67005076142132 Y33.63197969543147 I0 J-1.2690355329949239
G3 X4.258883248730965 Y33.357868020304565 I0.4847715736040609 J-1.1725888324873095
G3 X3.9847715736040605 Y32.944162436548226 I0.8984771573604061 J-0.8984771573604061
G3 X3.885786802030457 Y32.45939086294416 I1.1725888324873095 J-0.4847715736040609
G0 Z3
G0 X47.91522842639594 Y50.023604060913705
G1 Z-1 F800
G1 X47.91624365482234 Y51.7258883248731 F400
G1 X46.213197969543145 Y51.7258883248731
G1 X46.213197969543145 Y50.022842639593904
G1 X47.91624365482234 Y50.022842639593904
G0 Z3
G0 X48.33426395939086 Y5.791116751269035
G1 Z-1 F800
G1 X48.33502538071066 Y3.251269035532995 F400
G1 X50.87309644670051 Y3.251269035532995
G1 X50.87309644670051 Y5.791878172588833
G1 X48.33502538071066 Y5.791878172588833
G0 Z3
G0 X53.41522842639594 Y4.519796954314721
G1 Z-1 F800
G3 X53.512690355329944 Y4.032994923857868 I1.2690355329949239 J0 F400
G3 X53.786802030456855 Y3.6218274111675126 I1.1725888324873095 J0.4847715736040609
G3 X54.1979695431472 Y3.347715736040609 I0.8984771573604061 J0.8984771573604061
G3 X54.68527918781726 Y3.248730964467005 I0.4847715736040609 J1.1725888324873095
G3 X55.17005076142132 Y3.347715736040609 I0 J1.2690355329949239
G3 X55.58375634517766 Y3.6218274111675126 I-0.4847715736040609 J1.1725888324873095
G3 X55.857868020304565 Y4.032994923857868 I-0.8984771573604061 J0.8984771573604061
G3 X55.95431472081218 Y4.520304568527918 I-1.1725888324873095 J0.4847715736040609
G3 X55.857868020304565 Y5.00507614213198 I-1.2690355329949239 J0
G3 X55.58375634517766 Y5.4187817258883255 I-1.1725888324873095 J-0.4847715736040609
G3 X55.17005076142132 Y5.692893401015229 I-0.8984771573604061 J-0.8984771573604061
G3 X54.68527918781726 Y5.789340101522843 I-0.4847715736040609 J-1.1725888324873095
G3 X54.1979695431472 Y5.692893401015229 I0 J-1.2690355329949239
G3 X53.786802030456855 Y5.4187817258883255 I0.4847715736040609 J-1.1725888324873095
G3 X53.512690355329944 Y5.00507614213198 I0.8984771573604061 J-0.8984771573604061
G3 X53.41624365482233 Y4.520304568527918 I1.1725888324873095 J-0.4847715736040609
G0 Z3
G0 X59.6 Y55.31802030456853
G1 Z-1 F800
G3 X59.65989847715736 Y55.01269035532995 I0.799492385786802 J0 F400
G3 X59.835025380710654 Y54.75126903553299 I0.7385786802030457 J0.3071065989847716
G3 X60.09390862944162 Y54.57868020304568 I0.565989847715736 J0.565989847715736
G3 X60.401015228426395 Y54.51776649746193 I0.3071065989847716 J0.7385786802030457
G3 X60.70558375634518 Y54.57868020304568 I0 J0.799492385786802
G3 X60.96446700507614 Y54.75126903553299 I-0.3071065989847716 J0.7385786802030457
G3 X61.13959390862944 Y55.01269035532995 I-0.565989847715736 J0.565989847715736
G3 X61.200507614213194 Y55.317258883248726 I-0.7385786802030457 J0.3071065989847716
G3 X61.13959390862944 Y55.6243654822335 I-0.799492385786802 J0
G3 X60.96446700507614 Y55.88324873096447 I-0.7385786802030457 J-0.3071065989847716
G3 X60.70558375634518 Y56.055837563451774 I-0.565989847715736 J-0.565989847715736
G3 X60.401015228426395 Y56.11675126903553 I-0.3071065989847716 J-0.7385786802030457
G3 X60.09390862944162 Y56.055837563451774 I0 J-0.799492385786802
G3 X59.835025380710654 Y55.88324873096447 I0.3071065989847716 J-0.7385786802030457
G3 X59.65989847715736 Y55.6243654822335 I0.565989847715736 J-0.565989847715736
G3 X59.598984771573605 Y55.317258883248726 I0.7385786802030457 J-0.3071065989847716
G0 Z3
G0 X60.3989847715736 Y45.15964467005076
G1 Z-1 F800
G1 X60.398477157360404 Y43.253807106598984 F400
G1 X59.129441624365484 Y41.984771573604064
G1 X65.47969543147208 Y35.63451776649746
G1 X65.47969543147208 Y34.36548223350254
G0 Z3
G0 X30.391116751269035 Y41.348477157360406
G1 Z-1 F800
G3 X30.451776649746193 Y41.04314720812183 I0.799492385786802 J0 F400
G3 X30.6243654822335 Y40.78172588832487 I0.7385786802030457 J0.3071065989847716
G3 X30.885786802030456 Y40.609137055837564 I0.565989847715736 J0.565989847715736
G3 X31.19035532994924 Y40.54822335025381 I0.3071065989847716 J0.7385786802030457
G3 X31.497461928934012 Y40.609137055837564 I0 J0.799492385786802
G3 X31.756345177664972 Y40.78172588832487 I-0.3071065989847716 J0.7385786802030457
G3 X31.928934010152282 Y41.04314720812183 I-0.565989847715736 J0.565989847715736
G3 X31.98984771573604 Y41.34771573604061 I-0.7385786802030457 J0.3071065989847716
G3 X31.928934010152282 Y41.65482233502538 I-0.799492385786802 J0
G3 X31.756345177664972 Y41.91370558375635 I-0.7385786802030457 J-0.3071065989847716
G3 X31.497461928934012 Y42.088832487309645 I-0.565989847715736 J-0.565989847715736
G3 X31.19035532994924 Y42.1497461928934 I-0.3071065989847716 J-0.7385786802030457
G3 X30.885786802030456 Y42.088832487309645 I0 J-0.799492385786802
G3 X30.6243654822335 Y41.91370558375635 I0.3071065989847716 J-0.7385786802030457
G3 X30.451776649746193 Y41.65482233502538 I0.565989847715736 J-0.565989847715736
G3 X30.390862944162436 Y41.34771573604061 I0.7385786802030457 J-0.3071065989847716
G0 Z3
G0 X21.03045685279188 Y41.3497461928934
G1 Z-1 F800
G1 X21.03045685279188 Y40.07868020304569 F400
G1 X18.48984771573604 Y37.54060913705584
G1 X17.85532994923858 Y36.90609137055838
G1 X31.8248730964467 Y36.90609137055838
G1 X37.921319796954315 Y43
G1 X42.61928934010152 Y43
G0 Z3
G0 X57.06015228426396 Y45.793401015228426
G1 Z-1 F800
G3 X57.121827411167516 Y45.48730964467005 I0.799492385786802 J0 F400
G3 X57.29441624365482 Y45.22842639593908 I0.7385786802030457 J0.3071065989847716
G3 X57.55329949238579 Y45.05329949238579 I0.565989847715736 J0.565989847715736
G3 X57.860406091370564 Y44.99238578680203 I0.3071065989847716 J0.7385786802030457
G3 X58.16497461928934 Y45.05329949238579 I0 J0.799492385786802
G3 X58.42639593908629 Y45.22842639593908 I-0.3071065989847716 J0.7385786802030457
G3 X58.5989847715736 Y45.48730964467005 I-0.565989847715736 J0.565989847715736
G3 X58.659898477157356 Y45.79441624365482 I-0.7385786802030457 J0.3071065989847716
G3 X58.5989847715736 Y46.0989847715736 I-0.799492385786802 J0
G3 X58.42639593908629 Y46.357868020304565 I-0.7385786802030457 J-0.3071065989847716
G3 X58.16497461928934 Y46.53299492385787 I-0.565989847715736 J-0.565989847715736
G3 X57.860406091370564 Y46.59390862944163 I-0.3071065989847716 J-0.7385786802030457
G3 X57.55329949238579 Y46.53299492385787 I0 J-0.799492385786802
G3 X57.29441624365482 Y46.357868020304565 I0.3071065989847716 J-0.7385786802030457
G3 X57.121827411167516 Y46.0989847715736 I0.565989847715736 J-0.565989847715736
G3 X57.06091370558376 Y45.79441624365482 I0.7385786802030457 J-0.3071065989847716
G0 Z3
G0 X47.699492385786805 Y45.79467005076142
G1 Z-1 F800
G1 X45.921319796954315 Y45.79441624365482 F400
G1 X45.15989847715736 Y45.03299492385786
G1 X45.15989847715736 Y43
G0 Z3
G0 X64.67994923857869 Y22.93426395939086
G1 Z-1 F800
G3 X64.74111675126903 Y22.626903553299492 I0.799492385786802 J0 F400
G3 X64.91370558375634 Y22.36802030456853 I0.7385786802030457 J0.3071065989847716
G3 X65.1725888324873 Y22.195431472081218 I0.565989847715736 J0.565989847715736
G3 X65.47969543147208 Y22.134517766497463 I0.3071065989847716 J0.7385786802030457
G3 X65.78680203045685 Y22.195431472081218 I0 J0.799492385786802
G3 X66.04568527918782 Y22.36802030456853 I-0.3071065989847716 J0.7385786802030457
G3 X66.21827411167513 Y22.626903553299492 I-0.565989847715736 J0.565989847715736
G3 X66.27918781725889 Y22.934010152284262 I-0.7385786802030457 J0.3071065989847716
G3 X66.21827411167513 Y23.241116751269036 I-0.799492385786802 J0
G3 X66.04568527918782 Y23.5 I-0.7385786802030457 J-0.3071065989847716
G3 X65.78680203045685 Y23.67258883248731 I-0.565989847715736 J-0.565989847715736
G3 X65.47969543147208 Y23.73350253807107 I-0.3071065989847716 J-0.7385786802030457
G3 X65.1725888324873 Y23.67258883248731 I0 J-0.799492385786802
G3 X64.91370558375634 Y23.5 I0.3071065989847716 J-0.7385786802030457
G3 X64.74111675126903 Y23.241116751269036 I0.565989847715736 J-0.565989847715736
G3 X64.68020304568527 Y22.934010152284262 I0.7385786802030457 J-0.3071065989847716
G0 Z3
G0 X65.47868020304568 Y12.775888324873096
G1 Z-1 F800
G1 X59.17005076142132 Y12.776649746192895 F400
G1 X59.129441624365484 Y12.736040609137056
G1 X57.817258883248726 Y12.736040609137056
G1 X49.60406091370558 Y4.520304568527918
G1 X40.715736040609144 Y4.520304568527918
G1 X40.715736040609144 Y3.251269035532995
G1 X38.80964467005076 Y1.3451776649746192
G1 X33.73096446700507 Y1.3451776649746192
G1 X31.8248730964467 Y1.3451776649746192
G1 X24.840101522842637 Y1.3451776649746192
G1 X23.571065989847714 Y2.6167512690355332
G1 X23.571065989847714 Y5.791878172588833
G1 X29.918781725888323 Y12.139593908629443
G1 X30.555837563451774 Y12.139593908629443
G0 Z3
G0 X20.231472081218275 Y34.36370558375634
G1 Z-1 F800
G3 X20.29187817258883 Y34.058375634517766 I0.799492385786802 J0 F400
G3 X20.46446700507614 Y33.79695431472081 I0.7385786802030457 J0.3071065989847716
G3 X20.725888324873097 Y33.62436548223351 I0.565989847715736 J0.565989847715736
G3 X21.03045685279188 Y33.56345177664974 I0.3071065989847716 J0.7385786802030457
G3 X21.337563451776653 Y33.62436548223351 I0 J0.799492385786802
G3 X21.596446700507613 Y33.79695431472081 I-0.3071065989847716 J0.7385786802030457
G3 X21.771573604060915 Y34.058375634517766 I-0.565989847715736 J0.565989847715736
G3 X21.83248730964467 Y34.36294416243655 I-0.7385786802030457 J0.3071065989847716
G3 X21.771573604060915 Y34.67005076142132 I-0.799492385786802 J0
G3 X21.596446700507613 Y34.92893401015229 I-0.7385786802030457 J-0.3071065989847716
G3 X21.337563451776653 Y35.10406091370558 I-0.565989847715736 J-0.565989847715736
G3 X21.03045685279188 Y35.16497461928934 I-0.3071065989847716 J-0.7385786802030457
G3 X20.725888324873097 Y35.10406091370558 I0 J-0.799492385786802
G3 X20.46446700507614 Y34.92893401015229 I0.3071065989847716 J-0.7385786802030457
G3 X20.29187817258883 Y34.67005076142132 I0.565989847715736 J-0.565989847715736
G3 X20.230964467005073 Y34.36294416243655 I0.7385786802030457 J-0.3071065989847716
G0 Z3
G0 X31.19010152284264 Y34.36497461928934
G1 Z-1 F800
G1 X50.87309644670051 Y34.36548223350254 F400
G1 X60.507614213197975 Y34.36548223350254
G1 X61.77918781725889 Y33.09390862944162
G0 Z3
G0 X19.596446700507613 Y15.314467005076143
G1 Z-1 F800
G3 X19.65736040609137 Y15.007614213197972 I0.799492385786802 J0 F400
G3 X19.82994923857868 Y14.748730964467004 I0.7385786802030457 J0.3071065989847716
G3 X20.091370558375633 Y14.576142131979694 I0.565989847715736 J0.565989847715736
G3 X20.395939086294415 Y14.51522842639594 I0.3071065989847716 J0.7385786802030457
G3 X20.703045685279186 Y14.576142131979694 I0 J0.799492385786802
G3 X20.961928934010153 Y14.748730964467004 I-0.3071065989847716 J0.7385786802030457
G3 X21.134517766497463 Y15.007614213197972 I-0.565989847715736 J0.565989847715736
G3 X21.195431472081218 Y15.31472081218274 I-0.7385786802030457 J0.3071065989847716
G3 X21.134517766497463 Y15.621827411167512 I-0.799492385786802 J0
G3 X20.961928934010153 Y15.880710659898478 I-0.7385786802030457 J-0.3071065989847716
G3 X20.703045685279186 Y16.053299492385786 I-0.565989847715736 J-0.565989847715736
G3 X20.395939086294415 Y16.11421319796954 I-0.3071065989847716 J-0.7385786802030457
G3 X20.091370558375633 Y16.053299492385786 I0 J-0.799492385786802
G3 X19.82994923857868 Y15.880710659898478 I0.3071065989847716 J-0.7385786802030457
G3 X19.65736040609137 Y15.621827411167512 I0.565989847715736 J-0.565989847715736
G3 X19.596446700507613 Y15.31472081218274 I0.7385786802030457 J-0.3071065989847716
G0 Z3
G0 X23.57030456852792 Y8.965989847715736
G1 Z-1 F800
G1 X29.918781725888323 Y15.31472081218274 F400
G1 X30.555837563451774 Y15.31472081218274
G1 X35.63451776649746 Y15.31472081218274
G1 X36.700507614213194 Y14.246192893401016
G1 X36.700507614213194 Y11.916243654822336
G1 X36.47715736040609 Y12.139593908629443
G0 Z3
G0 X29.756091370558376 Y12.139593908629442
G1 Z-1 F800
G3 X29.817258883248734 Y11.83248730964467 I0.799492385786802 J0 F400
G3 X29.98984771573604 Y11.573604060913706 I0.7385786802030457 J0.3071065989847716
G3 X30.248730964467004 Y11.401015228426397 I0.565989847715736 J0.565989847715736
G3 X30.555837563451774 Y11.340101522842641 I0.3071065989847716 J0.7385786802030457
G3 X30.86294416243655 Y11.401015228426397 I0 J0.799492385786802
G3 X31.121827411167512 Y11.573604060913706 I-0.3071065989847716 J0.7385786802030457
G3 X31.294416243654823 Y11.83248730964467 I-0.565989847715736 J0.565989847715736
G3 X31.35532994923858 Y12.139593908629443 I-0.7385786802030457 J0.3071065989847716
G3 X31.294416243654823 Y12.446700507614212 I-0.799492385786802 J0
G3 X31.121827411167512 Y12.705583756345177 I-0.7385786802030457 J-0.3071065989847716
G3 X30.86294416243655 Y12.878172588832488 I-0.565989847715736 J-0.565989847715736
G3 X30.555837563451774 Y12.939086294416244 I-0.3071065989847716 J-0.7385786802030457
G3 X30.248730964467004 Y12.878172588832488 I0 J-0.799492385786802
G3 X29.98984771573604 Y12.705583756345177 I0.3071065989847716 J-0.7385786802030457
G3 X29.817258883248734 Y12.446700507614212 I0.565989847715736 J-0.565989847715736
G3 X29.756345177664976 Y12.139593908629443 I0.7385786802030457 J-0.3071065989847716
G0 Z3
G0 X20.395431472081217 Y12.140862944162437
G1 Z-1 F800
G1 X20.395939086294415 Y15.31472081218274 F400
G1 X20.395939086294415 Y18.48984771573604
G1 X22.936548223350254 Y21.03045685279188
G1 X24.205583756345177 Y21.03045685279188
G0 Z3
G0 X12.611675126903553 Y8.96472081218274
G1 Z-1 F800
G3 X12.67258883248731 Y8.657360406091371 I0.799492385786802 J0 F400
G3 X12.845177664974619 Y8.398477157360405 I0.7385786802030457 J0.3071065989847716
G3 X13.106598984771573 Y8.225888324873097 I0.565989847715736 J0.565989847715736
G3 X13.411167512690357 Y8.16497461928934 I0.3071065989847716 J0.7385786802030457
G3 X13.718274111675125 Y8.225888324873097 I0 J0.799492385786802
G3 X13.977157360406093 Y8.398477157360405 I-0.3071065989847716 J0.7385786802030457
G3 X14.149746192893403 Y8.657360406091371 I-0.565989847715736 J0.565989847715736
G3 X14.210659898477157 Y8.964467005076141 I-0.7385786802030457 J0.3071065989847716
G3 X14.149746192893403 Y9.271573604060915 I-0.799492385786802 J0
G3 X13.977157360406093 Y9.530456852791879 I-0.7385786802030457 J-0.3071065989847716
G3 X13.718274111675125 Y9.703045685279188 I-0.565989847715736 J-0.565989847715736
G3 X13.411167512690357 Y9.763959390862944 I-0.3071065989847716 J-0.7385786802030457
G3 X13.106598984771573 Y9.703045685279188 I0 J-0.799492385786802
G3 X12.845177664974619 Y9.530456852791879 I0.3071065989847716 J-0.7385786802030457
G3 X12.67258883248731 Y9.271573604060915 I0.565989847715736 J-0.565989847715736
G3 X12.611675126903554 Y8.964467005076141 I0.7385786802030457 J-0.3071065989847716
G0 Z3
G0 X22.771319796954316 Y5.78984771573604
G1 Z-1 F800
G3 X22.83248730964467 Y5.484771573604061 I0.799492385786802 J0 F400
G3 X23.005076142131983 Y5.223350253807107 I0.7385786802030457 J0.3071065989847716
G3 X23.263959390862944 Y5.050761421319797 I0.565989847715736 J0.565989847715736
G3 X23.571065989847714 Y4.98984771573604 I0.3071065989847716 J0.7385786802030457
G3 X23.878172588832488 Y5.050761421319797 I0 J0.799492385786802
G3 X24.13705583756345 Y5.223350253807107 I-0.3071065989847716 J0.7385786802030457
G3 X24.309644670050762 Y5.484771573604061 I-0.565989847715736 J0.565989847715736
G3 X24.37055837563452 Y5.789340101522843 I-0.7385786802030457 J0.3071065989847716
G3 X24.309644670050762 Y6.096446700507614 I-0.799492385786802 J0
G3 X24.13705583756345 Y6.355329949238579 I-0.7385786802030457 J-0.3071065989847716
G3 X23.878172588832488 Y6.527918781725889 I-0.565989847715736 J-0.565989847715736
G3 X23.571065989847714 Y6.588832487309645 I-0.3071065989847716 J-0.7385786802030457
G3 X23.263959390862944 Y6.527918781725889 I0 J-0.799492385786802
G3 X23.005076142131983 Y6.355329949238579 I0.3071065989847716 J-0.7385786802030457
G3 X22.83248730964467 Y6.096446700507614 I0.565989847715736 J-0.565989847715736
G3 X22.771573604060915 Y5.789340101522843 I0.7385786802030457 J-0.3071065989847716
G0 Z3
G0 X28.8253807106599 Y50.06421319796954
G1 Z-1 F800
G1 X28.8248730964467 Y51.68527918781726 F400
G1 X27.205583756345177 Y51.68527918781726
G1 X27.205583756345177 Y50.06345177664975
G1 X28.8248730964467 Y50.06345177664975
G0 Z3
G0 X29.745939086294417 Y50.87309644670051
G1 Z-1 F800
G3 X29.80710659898477 Y50.56345177664974 I0.8096446700507615 J0 F400
G3 X29.982233502538072 Y50.299492385786806 I0.748730964467005 J0.30964467005076146
G3 X30.246192893401016 Y50.1243654822335 I0.5736040609137056 J0.5736040609137056
G3 X30.555837563451774 Y50.06345177664975 I0.30964467005076146 J0.748730964467005
G3 X30.86548223350254 Y50.1243654822335 I0 J0.8096446700507615
G3 X31.129441624365484 Y50.299492385786806 I-0.30964467005076146 J0.748730964467005
G3 X31.304568527918782 Y50.56345177664974 I-0.5736040609137056 J0.5736040609137056
G3 X31.365482233502537 Y50.87309644670051 I-0.748730964467005 J0.30964467005076146
G3 X31.304568527918782 Y51.18274111675127 I-0.8096446700507615 J0
G3 X31.129441624365484 Y51.44670050761421 I-0.748730964467005 J-0.30964467005076146
G3 X30.86548223350254 Y51.621827411167516 I-0.5736040609137056 J-0.5736040609137056
G3 X30.555837563451774 Y51.682741116751274 I-0.30964467005076146 J-0.748730964467005
G3 X30.246192893401016 Y51.621827411167516 I0 J-0.8096446700507615
G3 X29.982233502538072 Y51.44670050761421 I0.30964467005076146 J-0.748730964467005
G3 X29.80710659898477 Y51.18274111675127 I0.5736040609137056 J-0.5736040609137056
G3 X29.746192893401012 Y50.87309644670051 I0.748730964467005 J-0.30964467005076146
G0 Z3
G0 X32.28604060913705 Y50.87309644670051
G1 Z-1 F800
G3 X32.34771573604061 Y50.56345177664974 I0.8096446700507615 J0 F400
G3 X32.522842639593904 Y50.299492385786806 I0.748730964467005 J0.30964467005076146
G3 X32.786802030456855 Y50.1243654822335 I0.5736040609137056 J0.5736040609137056
G3 X33.09644670050761 Y50.06345177664975 I0.30964467005076146 J0.748730964467005
G3 X33.40609137055837 Y50.1243654822335 I0 J0.8096446700507615
G3 X33.66751269035533 Y50.299492385786806 I-0.30964467005076146 J0.748730964467005
G3 X33.845177664974614 Y50.56345177664974 I-0.5736040609137056 J0.5736040609137056
G3 X33.90609137055838 Y50.87309644670051 I-0.748730964467005 J0.30964467005076146
G3 X33.845177664974614 Y51.18274111675127 I-0.8096446700507615 J0
G3 X33.66751269035533 Y51.44670050761421 I-0.748730964467005 J-0.30964467005076146
G3 X33.40609137055837 Y51.621827411167516 I-0.5736040609137056 J-0.5736040609137056
G3 X33.09644670050761 Y51.682741116751274 I-0.30964467005076146 J-0.748730964467005
G3 X32.786802030456855 Y51.621827411167516 I0 J-0.8096446700507615
G3 X32.522842639593904 Y51.44670050761421 I0.30964467005076146 J-0.748730964467005
G3 X32.34771573604061 Y51.18274111675127 I0.5736040609137056 J-0.5736040609137056
G3 X32.286802030456855 Y50.87309644670051 I0.748730964467005 J-0.30964467005076146
G0 Z3
G0 X64.57969543147208 Y25.846192893401014
G1 Z-1 F800
G1 X66.37817258883248 Y25.84517766497462 F400
G1 X66.37817258883248 Y27.64467005076142
G1 X64.57868020304568 Y27.64467005076142
G1 X64.57868020304568 Y25.84517766497462
G0 Z3
G0 X65.47868020304568 Y29.28527918781726
G1 Z-1 F800
G1 X67.38324873096447 Y29.284263959390863 F400
G1 X68.01776649746193 Y28.6497461928934
G1 X68.01776649746193 Y24.205583756345177
G1 X66.748730964467 Y22.936548223350254
G1 X65.47969543147208 Y22.936548223350254
G0 Z3
G0 X65.47868020304568 Y31.8251269035533
G1 Z-1 F800
G1 X67.38324873096447 Y31.8248730964467 F400
G1 X70.55837563451776 Y28.6497461928934
G1 X70.55837563451776 Y14.045685279187817
G1 X66.748730964467 Y10.236040609137056
G1 X59.129441624365484 Y10.236040609137056
G1 X54.68527918781726 Y5.791878172588833
G1 X54.68527918781726 Y4.520304568527918
G0 Z3
G0 X53.9251269035533 Y52.143147208121825
G1 Z-1 F800
G3 X53.98223350253807 Y51.85279187817259 I0.7588832487309645 J0 F400
G3 X54.14720812182742 Y51.60659898477157 I0.7030456852791878 J0.2918781725888325
G3 X54.39340101522842 Y51.44162436548223 I0.5380710659898478 J0.5380710659898478
G3 X54.68527918781726 Y51.38324873096447 I0.2918781725888325 J0.7030456852791878
G3 X54.977157360406096 Y51.44162436548223 I0 J0.7588832487309645
G3 X55.22335025380711 Y51.60659898477157 I-0.2918781725888325 J0.7030456852791878
G3 X55.388324873096444 Y51.85279187817259 I-0.5380710659898478 J0.5380710659898478
G3 X55.444162436548226 Y52.14213197969543 I-0.7030456852791878 J0.2918781725888325
G3 X55.388324873096444 Y52.43401015228426 I-0.7588832487309645 J0
G3 X55.22335025380711 Y52.680203045685275 I-0.7030456852791878 J-0.2918781725888325
G3 X54.977157360406096 Y52.84517766497462 I-0.5380710659898478 J-0.5380710659898478
G3 X54.68527918781726 Y52.90355329949239 I-0.2918781725888325 J-0.7030456852791878
G3 X54.39340101522842 Y52.84517766497462 I0 J-0.7588832487309645
G3 X54.14720812182742 Y52.680203045685275 I0.2918781725888325 J-0.7030456852791878
G3 X53.98223350253807 Y52.43401015228426 I0.5380710659898478 J-0.5380710659898478
G3 X53.9263959390863 Y52.14213197969543 I0.7030456852791878 J-0.2918781725888325
G0 Z3
G0 X53.9251269035533 Y54.68299492385787
G1 Z-1 F800
G3 X53.98223350253807 Y54.39340101522842 I0.7588832487309645 J0 F400
G3 X54.14720812182742 Y54.14467005076142 I0.7030456852791878 J0.2918781725888325
G3 X54.39340101522842 Y53.97969543147208 I0.5380710659898478 J0.5380710659898478
G3 X54.68527918781726 Y53.923857868020306 I0.2918781725888325 J0.7030456852791878
G3 X54.977157360406096 Y53.97969543147208 I0 J0.7588832487309645
G3 X55.22335025380711 Y54.14467005076142 I-0.2918781725888325 J0.7030456852791878
G3 X55.388324873096444 Y54.39340101522842 I-0.5380710659898478 J0.5380710659898478
G3 X55.444162436548226 Y54.682741116751274 I-0.7030456852791878 J0.2918781725888325
G3 X55.388324873096444 Y54.9746192893401 I-0.7588832487309645 J0
G3 X55.22335025380711 Y55.22081218274111 I-0.7030456852791878 J-0.2918781725888325
G3 X54.977157360406096 Y55.38578680203046 I-0.5380710659898478 J-0.5380710659898478
G3 X54.68527918781726 Y55.444162436548226 I-0.2918781725888325 J-0.7030456852791878
G3 X54.39340101522842 Y55.38578680203046 I0 J-0.7588832487309645
G3 X54.14720812182742 Y55.22081218274111 I0.2918781725888325 J-0.7030456852791878
G3 X53.98223350253807 Y54.9746192893401 I0.5380710659898478 J-0.5380710659898478
G3 X53.9263959390863 Y54.682741116751274 I0.7030456852791878 J-0.2918781725888325
G0 Z3
G0 X53.9246192893401 Y50.363959390862945
G1 Z-1 F800
G1 X53.923857868020306 Y48.845177664974614 F400
G1 X55.444162436548226 Y48.845177664974614
G1 X55.444162436548226 Y50.36294416243655
G1 X53.923857868020306 Y50.36294416243655
G0 Z3
G0 X15.384263959390863 Y19.29060913705584
G1 Z-1 F800
G1 X15.383248730964468 Y17.690355329949238 F400
G1 X17.784263959390863 Y17.690355329949238
G1 X17.784263959390863 Y19.29187817258883
G1 X15.383248730964468 Y19.29187817258883
G0 Z3
G0 X23.804060913705584 Y26.110406091370557
G1 Z-1 F800
G1 X24.604060913705585 Y26.109137055837564 F400
G0 Z3
G0 X16.18426395939086 Y21.03045685279188
G1 Z-1 F800
G1 X16.98477157360406 Y21.03045685279188 F400
G0 Z3
G0 X23.804060913705584 Y23.57055837563452
G1 Z-1 F800
G1 X24.604060913705585 Y23.571065989847714 F400
G0 Z3
G0 X16.18426395939086 Y23.57055837563452
G1 Z-1 F800
G1 X16.98477157360406 Y23.571065989847714 F400
G0 Z3
G0 X23.804060913705584 Y21.03045685279188
G1 Z-1 F800
G1 X24.604060913705585 Y21.03045685279188 F400
G0 Z3
G0 X16.18426395939086 Y26.110406091370557
G1 Z-1 F800
G1 X16.98477157360406 Y26.109137055837564 F400
G0 Z3
G0 X23.804060913705584 Y18.490609137055838
G1 Z-1 F800
G1 X24.604060913705585 Y18.48984771573604 F400
G0 Z3
G0 X6.561421319796954 Y12.140862944162437
G1 Z-1 F800
G1 X6.560913705583756 Y12.139593908629443 F400
G3 X6.598984771573604 Y11.949238578680204 I0.5 J0
G3 X6.705583756345178 Y11.786802030456853 I0.4619289340101523 J0.1903553299492386
G3 X6.868020304568528 Y11.677664974619288 I0.3553299492385787 J0.35279187817258884
G3 X7.060913705583757 Y11.639593908629442 I0.19289340101522845 J0.4619289340101523
G3 X7.251269035532994 Y11.677664974619288 I0 J0.5
G3 X7.416243654822336 Y11.786802030456853 I-0.1903553299492386 J0.4619289340101523
G3 X7.522842639593908 Y11.946700507614214 I-0.35279187817258884 J0.3553299492385787
G3 X7.560913705583756 Y12.139593908629443 I-0.4619289340101523 J0.19289340101522845
G3 X7.522842639593908 Y12.329949238578681 I-0.5 J0
G3 X7.416243654822336 Y12.492385786802028 I-0.4619289340101523 J-0.1903553299492386
G3 X7.253807106598985 Y12.601522842639595 I-0.35279187817258884 J-0.35279187817258884
G3 X7.060913705583757 Y12.63959390862944 I-0.1903553299492386 J-0.4619289340101523
G3 X6.870558375634518 Y12.601522842639595 I0 J-0.5
G3 X6.708121827411167 Y12.492385786802028 I0.1903553299492386 J-0.4619289340101523
G3 X6.598984771573604 Y12.329949238578681 I0.35279187817258884 J-0.35279187817258884
G3 X6.560913705583756 Y12.139593908629443 I0.4619289340101523 J-0.1903553299492386
G0 Z3
G0 X6.561421319796954 Y14.680710659898477
G1 Z-1 F800
G1 X6.560913705583756 Y14.680203045685278 F400
G3 X6.598984771573604 Y14.489847715736042 I0.5 J0
G3 X6.705583756345178 Y14.327411167512691 I0.4619289340101523 J0.1903553299492386
G3 X6.868020304568528 Y14.218274111675127 I0.3553299492385787 J0.35279187817258884
G3 X7.060913705583757 Y14.18020304568528 I0.19289340101522845 J0.4619289340101523
G3 X7.251269035532994 Y14.218274111675127 I0 J0.5
G3 X7.416243654822336 Y14.3248730964467 I-0.1903553299492386 J0.4619289340101523
G3 X7.522842639593908 Y14.48730964467005 I-0.35279187817258884 J0.3553299492385787
G3 X7.560913705583756 Y14.680203045685278 I-0.4619289340101523 J0.19289340101522845
G3 X7.522842639593908 Y14.870558375634516 I-0.5 J0
G3 X7.416243654822336 Y15.032994923857867 I-0.4619289340101523 J-0.1903553299492386
G3 X7.253807106598985 Y15.142131979695431 I-0.35279187817258884 J-0.35279187817258884
G3 X7.060913705583757 Y15.180203045685278 I-0.1903553299492386 J-0.4619289340101523
G3 X6.870558375634518 Y15.142131979695431 I0 J-0.5
G3 X6.708121827411167 Y15.032994923857867 I0.1903553299492386 J-0.4619289340101523
G3 X6.598984771573604 Y14.870558375634516 I0.35279187817258884 J-0.35279187817258884
G3 X6.560913705583756 Y14.680203045685278 I0.4619289340101523 J-0.1903553299492386
G0 Z3
G0 X6.561421319796954 Y9.601015228426396
G1 Z-1 F800
G1 X6.560913705583756 Y9.601522842639593 F400
G3 X6.598984771573604 Y9.408629441624365 I0.5 J0
G3 X6.705583756345178 Y9.246192893401016 I0.4619289340101523 J0.1903553299492386
G3 X6.868020304568528 Y9.137055837563452 I0.3553299492385787 J0.35279187817258884
G3 X7.060913705583757 Y9.098984771573605 I0.19289340101522845 J0.4619289340101523
G3 X7.251269035532994 Y9.137055837563452 I0 J0.5
G3 X7.416243654822336 Y9.246192893401016 I-0.1903553299492386 J0.4619289340101523
G3 X7.522842639593908 Y9.408629441624365 I-0.35279187817258884 J0.3553299492385787
G3 X7.560913705583756 Y9.598984771573605 I-0.4619289340101523 J0.19289340101522845
G3 X7.522842639593908 Y9.791878172588833 I-0.5 J0
G3 X7.416243654822336 Y9.954314720812183 I-0.4619289340101523 J-0.1903553299492386
G3 X7.253807106598985 Y10.060913705583756 I-0.35279187817258884 J-0.35279187817258884
G3 X7.060913705583757 Y10.098984771573605 I-0.1903553299492386 J-0.4619289340101523
G3 X6.870558375634518 Y10.060913705583756 I0 J-0.5
G3 X6.708121827411167 Y9.954314720812183 I0.1903553299492386 J-0.4619289340101523
G3 X6.598984771573604 Y9.791878172588833 I0.35279187817258884 J-0.35279187817258884
G3 X6.560913705583756 Y9.601522842639593 I0.4619289340101523 J-0.1903553299492386
G0 Z3
G0 X39.86370558375634 Y48.75355329949239
G1 Z-1 F800
G1 X41.565989847715734 Y48.753807106598984 F400
G1 X41.565989847715734 Y50.454314720812185
G1 X39.86294416243655 Y50.454314720812185
G1 X39.86294416243655 Y48.753807106598984
G0 Z3
G0 X38.1748730964467 Y49.60456852791878
G1 Z-1 F800
G1 X36.90355329949239 Y48.33502538071066 F400
G1 X31.8248730964467 Y48.33502538071066
G1 X30.555837563451774 Y49.60406091370558
G1 X30.555837563451774 Y50.8756345177665
G0 Z3
G0 X50.74340101522843 Y11.91497461928934
G1 Z-1 F800
G3 X50.83502538071066 Y11.456852791878172 I1.2005076142131978 J0 F400
G3 X51.09390862944163 Y11.065989847715736 I1.1091370558375635 J0.4593908629441624
G3 X51.484771573604064 Y10.807106598984772 I0.8477157360406091 J0.8477157360406091
G3 X51.94416243654822 Y10.715736040609137 I0.4593908629441624 J1.1091370558375635
G3 X52.40355329949239 Y10.807106598984772 I0 J1.2005076142131978
G3 X52.79187817258883 Y11.065989847715736 I-0.4593908629441624 J1.1091370558375635
G3 X53.0507614213198 Y11.456852791878172 I-0.8477157360406091 J0.8477157360406091
G3 X53.142131979695435 Y11.916243654822336 I-1.1091370558375635 J0.4593908629441624
G3 X53.0507614213198 Y12.373096446700506 I-1.2005076142131978 J0
G3 X52.79187817258883 Y12.763959390862944 I-1.1091370558375635 J-0.4593908629441624
G3 X52.40355329949239 Y13.022842639593907 I-0.8477157360406091 J-0.8477157360406091
G3 X51.94416243654822 Y13.114213197969544 I-0.4593908629441624 J-1.1091370558375635
G3 X51.484771573604064 Y13.022842639593907 I0 J-1.2005076142131978
G3 X51.09390862944163 Y12.763959390862944 I0.4593908629441624 J-1.1091370558375635
G3 X50.83502538071066 Y12.373096446700506 I0.8477157360406091 J-0.8477157360406091
G3 X50.743654822335024 Y11.916243654822336 I1.1091370558375635 J-0.4593908629441624
G0 Z3
G0 X43.123604060913706 Y11.91497461928934
G1 Z-1 F800
G3 X43.215736040609144 Y11.456852791878172 I1.2005076142131978 J0 F400
G3 X43.4746192893401 Y11.065989847715736 I1.1091370558375635 J0.4593908629441624
G3 X43.86548223350254 Y10.807106598984772 I0.8477157360406091 J0.8477157360406091
G3 X44.3248730964467 Y10.715736040609137 I0.4593908629441624 J1.1091370558375635
G3 X44.78172588832487 Y10.807106598984772 I0 J1.2005076142131978
G3 X45.17258883248731 Y11.065989847715736 I-0.4593908629441624 J1.1091370558375635
G3 X45.431472081218274 Y11.456852791878172 I-0.8477157360406091 J0.8477157360406091
G3 X45.522842639593904 Y11.916243654822336 I-1.1091370558375635 J0.4593908629441624
G3 X45.431472081218274 Y12.373096446700506 I-1.2005076142131978 J0
G3 X45.17258883248731 Y12.763959390862944 I-1.1091370558375635 J-0.4593908629441624
G3 X44.78172588832487 Y13.022842639593907 I-0.8477157360406091 J-0.8477157360406091
G3 X44.3248730964467 Y13.114213197969544 I-0.4593908629441624 J-1.1091370558375635
G3 X43.86548223350254 Y13.022842639593907 I0 J-1.2005076142131978
G3 X43.4746192893401 Y12.763959390862944 I0.4593908629441624 J-1.1091370558375635
G3 X43.215736040609144 Y12.373096446700506 I0.8477157360406091 J-0.8477157360406091
G3 X43.1243654822335 Y11.916243654822336 I1.1091370558375635 J-0.4593908629441624
G0 Z3
G0 X44.32131979695431 Y37.31649746192893
G1 Z-1 F800
G1 X36.700507614213194 Y37.31725888324873 F400
G0 Z3
G0 X35.503807106598984 Y11.91497461928934
G1 Z-1 F800
G3 X35.59644670050761 Y11.456852791878172 I1.2005076142131978 J0 F400
G3 X35.85532994923858 Y11.065989847715736 I1.1091370558375635 J0.4593908629441624
G3 X36.243654822335024 Y10.807106598984772 I0.8477157360406091 J0.8477157360406091
G3 X36.703045685279186 Y10.715736040609137 I0.4593908629441624 J1.1091370558375635
G3 X37.16243654822335 Y10.807106598984772 I0 J1.2005076142131978
G3 X37.55329949238578 Y11.065989847715736 I-0.4593908629441624 J1.1091370558375635
G3 X37.81218274111675 Y11.456852791878172 I-0.8477157360406091 J0.8477157360406091
G3 X37.90355329949239 Y11.916243654822336 I-1.1091370558375635 J0.4593908629441624
G3 X37.81218274111675 Y12.373096446700506 I-1.2005076142131978 J0
G3 X37.55329949238578 Y12.763959390862944 I-1.1091370558375635 J-0.4593908629441624
G3 X37.16243654822335 Y13.022842639593907 I-0.8477157360406091 J-0.8477157360406091
G3 X36.703045685279186 Y13.114213197969544 I-0.4593908629441624 J-1.1091370558375635
G3 X36.243654822335024 Y13.022842639593907 I0 J-1.2005076142131978
G3 X35.85532994923858 Y12.763959390862944 I0.4593908629441624 J-1.1091370558375635
G3 X35.59644670050761 Y12.373096446700506 I0.8477157360406091 J-0.8477157360406091
G3 X35.50507614213198 Y11.916243654822336 I1.1091370558375635 J-0.4593908629441624
G0 Z3
G0 X11.721573604060914 Y35.419035532994926
G1 Z-1 F800
G1 X11.720812182741117 Y37.121827411167516 F400
G1 X10.020304568527918 Y37.121827411167516
G1 X10.020304568527918 Y35.41878172588832
G1 X11.720812182741117 Y35.41878172588832
G0 Z3
G0 X10.870812182741117 Y33.72994923857868
G1 Z-1 F800
G1 X10.236040609137056 Y33.73096446700507 F400
G1 X7.060913705583757 Y30.555837563451774
G1 X7.060913705583757 Y24.205583756345177
G1 X7.060913705583757 Y19.124365482233504
G1 X7.060913705583757 Y14.680203045685278
G0 Z3
G0 X50.45532994923858 Y50.023604060913705
G1 Z-1 F800
G1 X50.454314720812185 Y51.7258883248731 F400
G1 X48.753807106598984 Y51.7258883248731
G1 X48.753807106598984 Y50.022842639593904
G1 X50.454314720812185 Y50.022842639593904
G0 Z3
G0 X12.611675126903553 Y54.04796954314721
G1 Z-1 F800
G3 X12.67258883248731 Y53.74111675126904 I0.799492385786802 J0 F400
G3 X12.845177664974619 Y53.48223350253807 I0.7385786802030457 J0.3071065989847716
G3 X13.106598984771573 Y53.30964467005076 I0.565989847715736 J0.565989847715736
G3 X13.411167512690357 Y53.24873096446701 I0.3071065989847716 J0.7385786802030457
G3 X13.718274111675125 Y53.30964467005076 I0 J0.799492385786802
G3 X13.977157360406093 Y53.48223350253807 I-0.3071065989847716 J0.7385786802030457
G3 X14.149746192893403 Y53.74111675126904 I-0.565989847715736 J0.565989847715736
G3 X14.210659898477157 Y54.04822335025381 I-0.7385786802030457 J0.3071065989847716
G3 X14.149746192893403 Y54.35532994923858 I-0.799492385786802 J0
G3 X13.977157360406093 Y54.61421319796954 I-0.7385786802030457 J-0.3071065989847716
G3 X13.718274111675125 Y54.78680203045685 I-0.565989847715736 J-0.565989847715736
G3 X13.411167512690357 Y54.847715736040605 I-0.3071065989847716 J-0.7385786802030457
G3 X13.106598984771573 Y54.78680203045685 I0 J-0.799492385786802
G3 X12.845177664974619 Y54.61421319796954 I0.3071065989847716 J-0.7385786802030457
G3 X12.67258883248731 Y54.35532994923858 I0.565989847715736 J-0.565989847715736
G3 X12.611675126903554 Y54.04822335025381 I0.7385786802030457 J-0.3071065989847716
G0 Z3
G0 X23.57030456852792 Y54.0492385786802
G1 Z-1 F800
G1 X21.66497461928934 Y54.04822335025381 F400
G1 X21.03045685279188 Y53.41370558375634
G1 X21.03045685279188 Y50.8756345177665
G1 X21.03045685279188 Y45.79441624365482
G1 X18.48984771573604 Y45.79441624365482
G0 Z3
G0 X58.32893401015228 Y9.435786802030456
G1 Z-1 F800
G1 X59.92893401015229 Y9.436548223350254 F400
G1 X59.92893401015229 Y11.035532994923859
G1 X58.32994923857868 Y11.035532994923859
G1 X58.32994923857868 Y9.436548223350254
G0 Z3
G0 X58.32994923857868 Y12.734517766497461
G1 Z-1 F800
G3 X58.390862944162436 Y12.428934010152284 I0.799492385786802 J0 F400
G3 X58.56345177664974 Y12.16751269035533 I0.7385786802030457 J0.3071065989847716
G3 X58.8248730964467 Y11.99492385786802 I0.565989847715736 J0.565989847715736
G3 X59.129441624365484 Y11.934010152284264 I0.3071065989847716 J0.7385786802030457
G3 X59.43654822335026 Y11.99492385786802 I0 J0.799492385786802
G3 X59.69543147208122 Y12.16751269035533 I-0.3071065989847716 J0.7385786802030457
G3 X59.86802030456853 Y12.428934010152284 I-0.565989847715736 J0.565989847715736
G3 X59.92893401015229 Y12.733502538071066 I-0.7385786802030457 J0.3071065989847716
G3 X59.86802030456853 Y13.040609137055839 I-0.799492385786802 J0
G3 X59.69543147208122 Y13.299492385786802 I-0.7385786802030457 J-0.3071065989847716
G3 X59.43654822335026 Y13.474619289340101 I-0.565989847715736 J-0.565989847715736
G3 X59.129441624365484 Y13.535532994923859 I-0.3071065989847716 J-0.7385786802030457
G3 X58.8248730964467 Y13.474619289340101 I0 J-0.799492385786802
G3 X58.56345177664974 Y13.299492385786802 I0.3071065989847716 J-0.7385786802030457
G3 X58.390862944162436 Y13.040609137055839 I0.565989847715736 J-0.565989847715736
G3 X58.32994923857868 Y12.733502538071066 I0.7385786802030457 J-0.3071065989847716
G0 Z3
G0 X30.770812182741118 Y19.54467005076142
G1 Z-1 F800
G1 X30.77157360406091 Y21.246192893401016 F400
G1 X29.068527918781726 Y21.246192893401016
G1 X29.068527918781726 Y19.545685279187815
G1 X30.77157360406091 Y19.545685279187815
G0 Z3
G0 X11.721573604060914 Y4.94010152284264
G1 Z-1 F800
G1 X11.720812182741117 Y6.6421319796954315 F400
G1 X10.020304568527918 Y6.6421319796954315
G1 X10.020304568527918 Y4.939086294416244
G1 X11.720812182741117 Y4.939086294416244
G0 Z3
G0 X16.760659898477158 Y44.98451776649746
G1 Z-1 F800
G1 X16.761421319796955 Y46.60406091370558 F400
G1 X15.13959390862944 Y46.60406091370558
G1 X15.13959390862944 Y44.98477157360406
G1 X16.761421319796955 Y44.98477157360406
G0 Z3
G0 X17.681472081218274 Y45.793401015228426
G1 Z-1 F800
G3 X17.743654822335024 Y45.48223350253807 I0.8096446700507615 J0 F400
G3 X17.918781725888323 Y45.22081218274111 I0.748730964467005 J0.30964467005076146
G3 X18.18274111675127 Y45.045685279187815 I0.5736040609137056 J0.5736040609137056
G3 X18.492385786802032 Y44.982233502538065 I0.30964467005076146 J0.748730964467005
G3 X18.80203045685279 Y45.045685279187815 I0 J0.8096446700507615
G3 X19.063451776649746 Y45.22081218274111 I-0.30964467005076146 J0.748730964467005
G3 X19.238578680203048 Y45.48223350253807 I-0.5736040609137056 J0.5736040609137056
G3 X19.30203045685279 Y45.79441624365482 I-0.748730964467005 J0.30964467005076146
G3 X19.238578680203048 Y46.10406091370558 I-0.8096446700507615 J0
G3 X19.063451776649746 Y46.36548223350254 I-0.748730964467005 J-0.30964467005076146
G3 X18.80203045685279 Y46.54060913705584 I-0.5736040609137056 J-0.5736040609137056
G3 X18.492385786802032 Y46.60406091370558 I-0.30964467005076146 J-0.748730964467005
G3 X18.18274111675127 Y46.54060913705584 I0 J-0.8096446700507615
G3 X17.918781725888323 Y46.36548223350254 I0.30964467005076146 J-0.748730964467005
G3 X17.743654822335024 Y46.10406091370558 I0.5736040609137056 J-0.5736040609137056
G3 X17.682741116751266 Y45.79441624365482 I0.748730964467005 J-0.30964467005076146
G0 Z3
G0 X20.221319796954315 Y45.793401015228426
G1 Z-1 F800
G3 X20.284263959390863 Y45.48223350253807 I0.8096446700507615 J0 F400
G3 X20.45939086294416 Y45.22081218274111 I0.748730964467005 J0.30964467005076146
G3 X20.720812182741113 Y45.045685279187815 I0.5736040609137056 J0.5736040609137056
G3 X21.03045685279188 Y44.982233502538065 I0.30964467005076146 J0.748730964467005
G3 X21.340101522842637 Y45.045685279187815 I0 J0.8096446700507615
G3 X21.60406091370558 Y45.22081218274111 I-0.30964467005076146 J0.748730964467005
G3 X21.779187817258887 Y45.48223350253807 I-0.5736040609137056 J0.5736040609137056
G3 X21.84010152284264 Y45.79441624365482 I-0.748730964467005 J0.30964467005076146
G3 X21.779187817258887 Y46.10406091370558 I-0.8096446700507615 J0
G3 X21.60406091370558 Y46.36548223350254 I-0.748730964467005 J-0.30964467005076146
G3 X21.340101522842637 Y46.54060913705584 I-0.5736040609137056 J-0.5736040609137056
G3 X21.03045685279188 Y46.60406091370558 I-0.30964467005076146 J-0.748730964467005
G3 X20.720812182741113 Y46.54060913705584 I0 J-0.8096446700507615
G3 X20.45939086294416 Y46.36548223350254 I0.30964467005076146 J-0.748730964467005
G3 X20.284263959390863 Y46.10406091370558 I0.5736040609137056 J-0.5736040609137056
G3 X20.220812182741117 Y45.79441624365482 I0.748730964467005 J-0.30964467005076146
G0 Z3
G0 X70.40456852791878 Y53.41319796954315
G1 Z-1 F800
G3 X70.27157360406092 Y54.08375634517767 I-1.748730964467005 J0 F400
G3 X69.89086294416244 Y54.6497461928934 I-1.6167512690355328 J-0.6700507614213198
G3 X69.3248730964467 Y55.030456852791886 I-1.2385786802030458 J-1.2385786802030458
G3 X68.65482233502539 Y55.162436548223354 I-0.6700507614213198 J-1.6167512690355328
G3 X67.98477157360406 Y55.030456852791886 I0 J-1.748730964467005
G3 X67.41624365482234 Y54.6497461928934 I0.6700507614213198 J-1.6167512690355328
G3 X67.03807106598985 Y54.08375634517767 I1.2385786802030458 J-1.2385786802030458
G3 X66.90355329949239 Y53.41370558375634 I1.6167512690355328 J-0.6700507614213198
G3 X67.03807106598985 Y52.743654822335024 I1.748730964467005 J0
G3 X67.41624365482234 Y52.175126903553306 I1.6167512690355328 J0.6700507614213198
G3 X67.98477157360406 Y51.79695431472081 I1.2385786802030458 J1.2385786802030458
G3 X68.65482233502539 Y51.66243654822335 I0.6700507614213198 J1.6167512690355328
G3 X69.3248730964467 Y51.79695431472081 I0 J1.748730964467005
G3 X69.89086294416244 Y52.175126903553306 I-0.6700507614213198 J1.6167512690355328
G3 X70.27157360406092 Y52.743654822335024 I-1.2385786802030458 J1.2385786802030458
G3 X70.40355329949239 Y53.41370558375634 I-1.6167512690355328 J0.6700507614213198
G0 Z3
G0 X70.40456852791878 Y3.884771573604061
G1 Z-1 F800
G3 X70.27157360406092 Y4.553299492385786 I-1.748730964467005 J0 F400
G3 X69.89086294416244 Y5.121827411167512 I-1.6167512690355328 J-0.6700507614213198
G3 X69.3248730964467 Y5.50253807106599 I-1.2385786802030458 J-1.2385786802030458
G3 X68.65482233502539 Y5.634517766497462 I-0.6700507614213198 J-1.6167512690355328
G3 X67.98477157360406 Y5.50253807106599 I0 J-1.748730964467005
G3 X67.41624365482234 Y5.121827411167512 I0.6700507614213198 J-1.6167512690355328
G3 X67.03807106598985 Y4.553299492385786 I1.2385786802030458 J-1.2385786802030458
G3 X66.90355329949239 Y3.885786802030457 I1.6167512690355328 J-0.6700507614213198
G3 X67.03807106598985 Y3.215736040609137 I1.748730964467005 J0
G3 X67.41624365482234 Y2.6472081218274113 I1.6167512690355328 J0.6700507614213198
G3 X67.98477157360406 Y2.269035532994924 I1.2385786802030458 J1.2385786802030458
G3 X68.65482233502539 Y2.1345177664974617 I0.6700507614213198 J1.6167512690355328
G3 X69.3248730964467 Y2.269035532994924 I0 J1.748730964467005
G3 X69.89086294416244 Y2.6472081218274113 I-0.6700507614213198 J1.6167512690355328
G3 X70.27157360406092 Y3.215736040609137 I-1.2385786802030458 J1.2385786802030458
G3 X70.40355329949239 Y3.885786802030457 I-1.6167512690355328 J0.6700507614213198
G0 Z3
G0 X5.6368020304568525 Y3.884771573604061
G1 Z-1 F800
G3 X5.50253807106599 Y4.553299492385786 I-1.748730964467005 J0 F400
G3 X5.124365482233503 Y5.121827411167512 I-1.6167512690355328 J-0.6700507614213198
G3 X4.555837563451776 Y5.50253807106599 I-1.2385786802030458 J-1.2385786802030458
G3 X3.885786802030457 Y5.634517766497462 I-0.6700507614213198 J-1.6167512690355328
G3 X3.218274111675127 Y5.50253807106599 I0 J-1.748730964467005
G3 X2.6497461928934007 Y5.121827411167512 I0.6700507614213198 J-1.6167512690355328
G3 X2.269035532994924 Y4.553299492385786 I1.2385786802030458 J-1.2385786802030458
G3 X2.1370558375634516 Y3.885786802030457 I1.6167512690355328 J-0.6700507614213198
G3 X2.269035532994924 Y3.215736040609137 I1.748730964467005 J0
G3 X2.6497461928934007 Y2.6472081218274113 I1.6167512690355328 J0.6700507614213198
G3 X3.218274111675127 Y2.269035532994924 I1.2385786802030458 J1.2385786802030458
G3 X3.885786802030457 Y2.1345177664974617 I0.6700507614213198 J1.6167512690355328
G3 X4.555837563451776 Y2.269035532994924 I0 J1.748730964467005
G3 X5.124365482233503 Y2.6472081218274113 I-0.6700507614213198 J1.6167512690355328
G3 X5.50253807106599 Y3.215736040609137 I-1.2385786802030458 J1.2385786802030458
G3 X5.637055837563452 Y3.885786802030457 I-1.6167512690355328 J0.6700507614213198
G0 Z3
G0 X5.6368020304568525 Y53.41319796954315
G1 Z-1 F800
G3 X5.50253807106599 Y54.08375634517767 I-1.748730964467005 J0 F400
G3 X5.124365482233503 Y54.6497461928934 I-1.6167512690355328 J-0.6700507614213198
G3 X4.555837563451776 Y55.030456852791886 I-1.2385786802030458 J-1.2385786802030458
G3 X3.885786802030457 Y55.162436548223354 I-0.6700507614213198 J-1.6167512690355328
G3 X3.218274111675127 Y55.030456852791886 I0 J-1.748730964467005
G3 X2.6497461928934007 Y54.6497461928934 I0.6700507614213198 J-1.6167512690355328
G3 X2.269035532994924 Y54.08375634517767 I1.2385786802030458 J-1.2385786802030458
G3 X2.1370558375634516 Y53.41370558375634 I1.6167512690355328 J-0.6700507614213198
G3 X2.269035532994924 Y52.743654822335024 I1.748730964467005 J0
G3 X2.6497461928934007 Y52.175126903553306 I1.6167512690355328 J0.6700507614213198
G3 X3.218274111675127 Y51.79695431472081 I1.2385786802030458 J1.2385786802030458
G3 X3.885786802030457 Y51.66243654822335 I0.6700507614213198 J1.6167512690355328
G3 X4.555837563451776 Y51.79695431472081 I0 J1.748730964467005
G3 X5.124365482233503 Y52.175126903553306 I-0.6700507614213198 J1.6167512690355328
G3 X5.50253807106599 Y52.743654822335024 I-1.2385786802030458 J1.2385786802030458
G3 X5.637055837563452 Y53.41370558375634 I-1.6167512690355328 J0.6700507614213198
G0 Z3
G0 X18.49035532994924 Y36.40964467005076
G1 Z-1 F800
G1 X19.621827411167512 Y37.54060913705584 F400
G1 X18.48984771573604 Y38.67005076142132
G1 X17.35786802030457 Y37.54060913705584
G1 X18.48984771573604 Y36.40862944162436
G0 Z3
G0 X15.923604060913705 Y39.30634517766497
G1 Z-1 F800
G3 X15.984771573604062 Y39 I0.799492385786802 J0 F400
G3 X16.15736040609137 Y38.74111675126903 I0.7385786802030457 J0.3071065989847716
G3 X16.418781725888326 Y38.568527918781726 I0.565989847715736 J0.565989847715736
G3 X16.723350253807105 Y38.50761421319797 I0.3071065989847716 J0.7385786802030457
G3 X17.03045685279188 Y38.568527918781726 I0 J0.799492385786802
G3 X17.289340101522843 Y38.74111675126903 I-0.3071065989847716 J0.7385786802030457
G3 X17.461928934010153 Y39 I-0.565989847715736 J0.565989847715736
G3 X17.52284263959391 Y39.307106598984774 I-0.7385786802030457 J0.3071065989847716
G3 X17.461928934010153 Y39.61167512690355 I-0.799492385786802 J0
G3 X17.289340101522843 Y39.87309644670051 I-0.7385786802030457 J-0.3071065989847716
G3 X17.03045685279188 Y40.045685279187815 I-0.565989847715736 J-0.565989847715736
G3 X16.723350253807105 Y40.10659898477157 I-0.3071065989847716 J-0.7385786802030457
G3 X16.418781725888326 Y40.045685279187815 I0 J-0.799492385786802
G3 X16.15736040609137 Y39.87309644670051 I0.3071065989847716 J-0.7385786802030457
G3 X15.984771573604062 Y39.61167512690355 I0.565989847715736 J-0.565989847715736
G3 X15.923857868020303 Y39.307106598984774 I0.7385786802030457 J-0.3071065989847716
G0 Z3
G0 X15.785532994923859 Y33.89517766497462
G1 Z-1 F800
G1 X15.784263959390863 Y32.29441624365482 F400
G1 X17.385786802030456 Y32.29441624365482
G1 X17.385786802030456 Y33.89593908629442
G1 X15.784263959390863 Y33.89593908629442
G0 Z3
G0 X18.286294416243656 Y33.09390862944162
G1 Z-1 F800
G3 X18.34771573604061 Y32.786802030456855 I0.799492385786802 J0 F400
G3 X18.52030456852792 Y32.52791878172589 I0.7385786802030457 J0.3071065989847716
G3 X18.779187817258883 Y32.35532994923858 I0.565989847715736 J0.565989847715736
G3 X19.086294416243653 Y32.29441624365482 I0.3071065989847716 J0.7385786802030457
G3 X19.393401015228427 Y32.35532994923858 I0 J0.799492385786802
G3 X19.65228426395939 Y32.52791878172589 I-0.3071065989847716 J0.7385786802030457
G3 X19.8248730964467 Y32.786802030456855 I-0.565989847715736 J0.565989847715736
G3 X19.885786802030456 Y33.09390862944162 I-0.7385786802030457 J0.3071065989847716
G3 X19.8248730964467 Y33.401015228426395 I-0.799492385786802 J0
G3 X19.65228426395939 Y33.65989847715736 I-0.7385786802030457 J-0.3071065989847716
G3 X19.393401015228427 Y33.83248730964467 I-0.565989847715736 J-0.565989847715736
G3 X19.086294416243653 Y33.89340101522843 I-0.3071065989847716 J-0.7385786802030457
G3 X18.779187817258883 Y33.83248730964467 I0 J-0.799492385786802
G3 X18.52030456852792 Y33.65989847715736 I0.3071065989847716 J-0.7385786802030457
G3 X18.34771573604061 Y33.401015228426395 I0.565989847715736 J-0.565989847715736
G3 X18.28680203045685 Y33.09390862944162 I0.7385786802030457 J-0.3071065989847716
G0 Z3
G0 X61.37005076142132 Y18.489340101522842
G1 Z-1 F800
G3 X61.39340101522842 Y18.375634517766496 I0.29949238578680204 J0 F400
G3 X61.45685279187817 Y18.276649746192895 I0.2766497461928934 J0.11421319796954314
G3 X61.555837563451774 Y18.213197969543145 I0.21319796954314718 J0.21319796954314718
G3 X61.67005076142132 Y18.190355329949238 I0.11421319796954314 J0.2766497461928934
G3 X61.784263959390856 Y18.213197969543145 I0 J0.29949238578680204
G3 X61.88324873096447 Y18.276649746192895 I-0.11421319796954314 J0.2766497461928934
G3 X61.94670050761421 Y18.375634517766496 I-0.21319796954314718 J0.21319796954314718
G3 X61.96954314720812 Y18.48984771573604 I-0.2766497461928934 J0.11421319796954314
G3 X61.94670050761421 Y18.604060913705585 I-0.29949238578680204 J0
G3 X61.88324873096447 Y18.700507614213198 I-0.2766497461928934 J-0.11421319796954314
G3 X61.784263959390856 Y18.766497461928935 I-0.21319796954314718 J-0.21319796954314718
G3 X61.67005076142132 Y18.789340101522843 I-0.11421319796954314 J-0.2766497461928934
G3 X61.555837563451774 Y18.766497461928935 I0 J-0.29949238578680204
G3 X61.45685279187817 Y18.700507614213198 I0.11421319796954314 J-0.2766497461928934
G3 X61.39340101522842 Y18.604060913705585 I0.21319796954314718 J-0.21319796954314718
G3 X61.370558375634516 Y18.48984771573604 I0.2766497461928934 J-0.11421319796954314
G0 Z3
G0 X56.29010152284264 Y18.489340101522842
G1 Z-1 F800
G3 X56.31218274111675 Y18.375634517766496 I0.29949238578680204 J0 F400
G3 X56.37817258883249 Y18.276649746192895 I0.2766497461928934 J0.11421319796954314
G3 X56.474619289340104 Y18.213197969543145 I0.21319796954314718 J0.21319796954314718
G3 X56.59137055837563 Y18.190355329949238 I0.11421319796954314 J0.2766497461928934
G3 X56.70558375634518 Y18.213197969543145 I0 J0.29949238578680204
G3 X56.80203045685279 Y18.276649746192895 I-0.11421319796954314 J0.2766497461928934
G3 X56.86802030456853 Y18.375634517766496 I-0.21319796954314718 J0.21319796954314718
G3 X56.890862944162436 Y18.48984771573604 I-0.2766497461928934 J0.11421319796954314
G3 X56.86802030456853 Y18.604060913705585 I-0.29949238578680204 J0
G3 X56.80203045685279 Y18.700507614213198 I-0.2766497461928934 J-0.11421319796954314
G3 X56.70558375634518 Y18.766497461928935 I-0.21319796954314718 J-0.21319796954314718
G3 X56.59137055837563 Y18.789340101522843 I-0.11421319796954314 J-0.2766497461928934
G3 X56.474619289340104 Y18.766497461928935 I0 J-0.29949238578680204
G3 X56.37817258883249 Y18.700507614213198 I0.11421319796954314 J-0.2766497461928934
G3 X56.31218274111675 Y18.604060913705585 I0.21319796954314718 J-0.21319796954314718
G3 X56.289340101522846 Y18.48984771573604 I0.2766497461928934 J-0.11421319796954314
G0 Z3
G0 X16.72258883248731 Y39.30761421319797
G1 Z-1 F800
G1 X13.908629441624365 Y39.307106598984774 F400
G1 X10.870558375634518 Y36.26903553299493
G1 X10.870558375634518 Y51.51015228426396
G1 X13.411167512690357 Y54.04822335025381
G1 X15.31472081218274 Y55.95431472081218
G1 X17.220812182741117 Y55.95431472081218
G1 X18.48984771573604 Y54.68527918781726
G1 X18.48984771573604 Y50.8756345177665
G0 Z3
G0 X19.084771573604062 Y33.09517766497462
G1 Z-1 F800
G1 X19.083756345177665 Y29.284263959390863 F400
G1 X19.124365482233504 Y29.284263959390863
G1 X21.03045685279188 Y27.380710659898476
G1 X23.571065989847714 Y29.921319796954315
G0 Z3
G0 X59.169543147208124 Y12.775888324873096
G1 Z-1 F800
G1 X59.129441624365484 Y12.736040609137056 F400
G1 X59.129441624365484 Y29.284263959390863
G1 X59.763959390862944 Y29.921319796954315
G1 X59.763959390862944 Y30.555837563451774
G1 X61.77918781725889 Y30.555837563451774
G1 X59.763959390862944 Y30.555837563451774
G0 Z3
G0 X33.09492385786802 Y50.8743654822335
G1 Z-1 F800
G1 X33.09390862944162 Y54.68527918781726 F400
G1 X31.8248730964467 Y55.95431472081218
G1 X29.918781725888323 Y55.95431472081218
G1 X29.284263959390863 Y55.95431472081218
G1 X19.124365482233504 Y55.95431472081218
G1 X18.48984771573604 Y55.95431472081218
G1 X17.220812182741117 Y55.95431472081218
G0 Z3
G0 X31.8248730964467 Y55.954314720812185
G1 Z-1 F800
G1 X53.41370558375634 Y55.95431472081218 F400
G1 X54.68527918781726 Y54.68527918781726
G0 Z3
G0 X59.128934010152285 Y12.735279187817259
G1 Z-1 F800
G1 X59.129441624365484 Y12.776649746192895 F400
G0 Z3
G0 X4.561675126903554 Y24.20532994923858
G1 Z-1 F800
G1 X3.251269035532995 Y24.205583756345177 F400
G1 X1.982233502538071 Y25.474619289340104
G1 X1.982233502538071 Y24.840101522842637
G1 X1.982233502538071 Y25.474619289340104
G1 X1.982233502538071 Y34.36548223350254
G1 X5.154822335025381 Y37.54060913705584
G1 X9.601522842639593 Y37.54060913705584
G1 X10.870558375634518 Y36.26903553299493
G0 Z3
G0 X1.9809644670050761 Y25.4753807106599
G1 Z-1 F800
G1 X1.982233502538071 Y21.03045685279188 F400
G1 X1.982233502538071 Y20.395939086294415
G1 X3.251269035532995 Y19.124365482233504
G1 X4.560913705583756 Y19.124365482233504
G0 Z3
G0 X1.9809644670050761 Y13.410913705583756
G1 Z-1 F800
G1 X1.982233502538071 Y14.680203045685278 F400
G1 X1.982233502538071 Y20.395939086294415
G0 Z3
G0 X21.03045685279188 Y27.380203045685278
G1 Z-1 F800
G1 X21.03045685279188 Y21.66497461928934 F400
G1 X17.85532994923858 Y18.48984771573604
G1 X16.586294416243653 Y18.48984771573604
G1 X16.586294416243653 Y2.6167512690355332
G1 X17.85532994923858 Y1.3451776649746192
G1 X15.951776649746192 Y1.3451776649746192
G1 X12.139593908629443 Y1.3451776649746192
G1 X1.982233502538071 Y11.50507614213198
G1 X1.982233502538071 Y12.139593908629443
G1 X1.982233502538071 Y11.50507614213198
G1 X1.982233502538071 Y12.776649746192895
G1 X1.982233502538071 Y13.411167512690357
G1 X3.251269035532995 Y12.139593908629443
G1 X7.060913705583757 Y12.139593908629443
G1 X7.101522842639594 Y12.098984771573605
G1 X10.236040609137056 Y12.098984771573605
G0 Z3
G0 X17.855583756345176 Y1.3461928934010152
G1 Z-1 F800
G1 X24.840101522842637 Y1.3451776649746192 F400
G0 Z3
G0 X7.060913705583756 Y30.55507614213198
G1 Z-1 F800
G1 X5.154822335025381 Y32.45939086294416 F400
G0 Z3
G0 X7.060913705583756 Y9.601015228426396
G1 Z-1 F800
G1 X10.236040609137056 Y9.601522842639593 F400
G1 X12.139593908629443 Y11.50507614213198
G1 X12.139593908629443 Y30.555837563451774
G1 X12.139593908629443 Y31.19035532994924
G1 X15.31472081218274 Y34.36548223350254
G1 X16.586294416243653 Y33.09390862944162
G1 X16.586294416243653 Y29.284263959390863
G1 X16.586294416243653 Y26.109137055837564
G0 Z3
G0 X15.315482233502538 Y34.36497461928934
G1 Z-1 F800
G1 X17.85532994923858 Y36.90609137055838 F400
G0 Z3
G0 X31.19010152284264 Y41.3497461928934
G1 Z-1 F800
G1 X29.284263959390863 Y41.3502538071066 F400
G1 X28.01522842639594 Y42.61928934010152
G1 X28.01522842639594 Y43.89086294416244
G1 X16.586294416243653 Y43.89086294416244
G1 X15.951776649746192 Y44.5253807106599
G1 X15.951776649746192 Y45.79441624365482
G1 X15.951776649746192 Y50.8756345177665
G0 Z3
G0 X28.01522842639594 Y43.88959390862944
G1 Z-1 F800
G1 X28.01522842639594 Y50.8756345177665 F400
G0 Z3
G0 X29.92005076142132 Y20.395431472081217
G1 Z-1 F800
G1 X29.918781725888323 Y19.124365482233504 F400
G1 X29.284263959390863 Y18.48984771573604
G1 X24.205583756345177 Y18.48984771573604
G1 X24.840101522842637 Y18.48984771573604
G0 Z3
G0 X29.28502538071066 Y18.490609137055838
G1 Z-1 F800
G1 X56.588832487309645 Y18.48984771573604 F400
G0 Z3
G0 X61.669035532994926 Y18.490609137055838
G1 Z-1 F800
G1 X61.67005076142132 Y19.124365482233504 F400
G1 X61.67005076142132 Y27.90609137055838
G1 X61.77918781725889 Y28.01522842639594
G1 X61.67005076142132 Y28.01522842639594
G0 Z3
G0 X59.128934010152285 Y41.984771573604064
G1 Z-1 F800
G1 X50.23857868020305 Y50.8756345177665 F400
G1 X49.60406091370558 Y50.8756345177665
G0 Z3
G0 X44.5246192893401 Y49.60456852791878
G1 Z-1 F800
G1 X44.5253807106599 Y49.60406091370558 F400
G1 X44.5253807106599 Y49.60406091370558
G0 Z3
G0 X65.47868020304568 Y26.74543147208122
G1 Z-1 F800
G1 X64.58883248730965 Y26.746192893401016 F400
G1 X63.5736040609137 Y27.761421319796952
G1 X63.5736040609137 Y34.87309644670051
G1 X49.85786802030457 Y48.588832487309645
G1 X47.827411167512686 Y48.588832487309645
G1 X47.06345177664975 Y49.3502538071066
G1 X47.06345177664975 Y50.8756345177665
G1 X47.06345177664975 Y52.14467005076142
G1 X46.42893401015228 Y52.77918781725888
G1 X41.3502538071066 Y52.77918781725888
G1 X40.715736040609144 Y52.14467005076142
G1 X38.1751269035533 Y52.14467005076142
G0 Z3
G0 X10.870812182741117 Y5.791116751269035
G1 Z-1 F800
G1 X13.411167512690357 Y5.791878172588833 F400
G1 X14.045685279187817 Y6.426395939086294
G1 X14.045685279187817 Y9.601522842639593
G1 X13.411167512690357 Y8.967005076142131
G0 Z3
G0 X16.58553299492386 Y21.03045685279188
G1 Z-1 F800
G1 X15.31472081218274 Y21.03045685279188 F400
G1 X14.045685279187817 Y19.761421319796955
G1 X14.045685279187817 Y9.601522842639593
G0 Z3
G0 X60.3989847715736 Y55.31928934010152
G1 Z-1 F800
G1 X60.398477157360404 Y53.41370558375634 F400
G1 X59.129441624365484 Y52.14467005076142
G1 X54.68527918781726 Y52.14467005076142
G0 Z3
G0 X54.68426395939086 Y49.60456852791878
G1 Z-1 F800
G1 X56.588832487309645 Y49.60406091370558 F400
G1 X57.85786802030457 Y48.33502538071066
G1 X57.85786802030457 Y45.79441624365482
G0 Z3
G0 X28.65 Y29.920304568527918
G1 Z-1 F800
G1 X28.6497461928934 Y32.45939086294416 F400
G1 X26.746192893401016 Y34.36548223350254
G1 X21.03045685279188 Y34.36548223350254
G0 Z3
G0 X50.8743654822335 Y34.36497461928934
G1 Z-1 F800
G1 X51.94162436548224 Y35.431472081218274 F400
G1 X51.94162436548224 Y37.31725888324873
G0 Z3
G0 X52.14416243654822 Y37.517005076142134
G1 Z-1 F800
G1 X51.94162436548224 Y37.31725888324873 F400
G0 Z3
G0 X26.11015228426396 Y29.920304568527918
G1 Z-1 F800
G1 X26.109137055837564 Y28.01522842639594 F400
G1 X24.205583756345177 Y26.109137055837564
G0 Z3
G0 X36.70152284263959 Y11.917258883248731
G1 Z-1 F800
G1 X36.700507614213194 Y5.588832487309645 F400
G1 X35.63451776649746 Y4.520304568527918
G0 Z3
G0 X51.941116751269035 Y11.917258883248731
G1 Z-1 F800
G1 X44.32233502538071 Y11.916243654822336 F400
G0 Z3
G0 X61.47005076142132 Y18.489340101522842
G1 Z-1 F800
G3 X61.484771573604064 Y18.413705583756347 I0.20050761421319796 J0 F400
G3 X61.52791878172589 Y18.34771573604061 I0.18527918781725888 J0.07614213197969544
G3 X61.59390862944163 Y18.304568527918782 I0.14213197969543148 J0.14213197969543148
G3 X61.67005076142132 Y18.289340101522843 I0.07614213197969544 J0.18527918781725888
G3 X61.746192893401016 Y18.304568527918782 I0 J0.20050761421319796
G3 X61.81218274111675 Y18.34771573604061 I-0.07614213197969544 J0.18527918781725888
G3 X61.85532994923858 Y18.413705583756347 I-0.14213197969543148 J0.14213197969543148
G3 X61.870558375634516 Y18.48984771573604 I-0.18527918781725888 J0.07614213197969544
G3 X61.85532994923858 Y18.565989847715734 I-0.20050761421319796 J0
G3 X61.81218274111675 Y18.631979695431472 I-0.18527918781725888 J-0.07614213197969544
G3 X61.746192893401016 Y18.6751269035533 I-0.14213197969543148 J-0.14213197969543148
G3 X61.67005076142132 Y18.690355329949238 I-0.07614213197969544 J-0.18527918781725888
G3 X61.59390862944163 Y18.6751269035533 I0 J-0.20050761421319796
G3 X61.52791878172589 Y18.631979695431472 I0.07614213197969544 J-0.18527918781725888
G3 X61.484771573604064 Y18.565989847715734 I0.14213197969543148 J-0.14213197969543148
G3 X61.46954314720812 Y18.48984771573604 I0.18527918781725888 J-0.07614213197969544
G0 Z3
G0 X56.39010152284264 Y18.489340101522842
G1 Z-1 F800
G3 X56.40609137055837 Y18.413705583756347 I0.20050761421319796 J0 F400
G3 X56.44923857868021 Y18.34771573604061 I0.18527918781725888 J0.07614213197969544
G3 X56.51269035532995 Y18.304568527918782 I0.14213197969543148 J0.14213197969543148
G3 X56.59137055837563 Y18.289340101522843 I0.07614213197969544 J0.18527918781725888
G3 X56.66751269035533 Y18.304568527918782 I0 J0.20050761421319796
G3 X56.73096446700508 Y18.34771573604061 I-0.07614213197969544 J0.18527918781725888
G3 X56.7741116751269 Y18.413705583756347 I-0.14213197969543148 J0.14213197969543148
G3 X56.78934010152284 Y18.48984771573604 I-0.18527918781725888 J0.07614213197969544
G3 X56.7741116751269 Y18.565989847715734 I-0.20050761421319796 J0
G3 X56.73096446700508 Y18.631979695431472 I-0.18527918781725888 J-0.07614213197969544
G3 X56.66751269035533 Y18.6751269035533 I-0.14213197969543148 J-0.14213197969543148
G3 X56.59137055837563 Y18.690355329949238 I-0.07614213197969544 J-0.18527918781725888
G3 X56.51269035532995 Y18.6751269035533 I0 J-0.20050761421319796
G3 X56.44923857868021 Y18.631979695431472 I0.07614213197969544 J-0.18527918781725888
G3 X56.40609137055837 Y18.565989847715734 I0.14213197969543148 J-0.14213197969543148
G3 X56.39086294416244 Y18.48984771573604 I0.18527918781725888 J-0.07614213197969544
G0 Z3
G0 X28.201015228426396 Y29.919035532994926
G1 Z-1 F800
G3 X28.236040609137056 Y29.746192893401012 I0.44923857868020306 J0 F400
G3 X28.33248730964467 Y29.601522842639593 I0.416243654822335 J0.17258883248730966
G3 X28.47969543147208 Y29.502538071065988 I0.31725888324873097 J0.31725888324873097
G3 X28.65228426395939 Y29.469543147208125 I0.17258883248730966 J0.416243654822335
G3 X28.82233502538071 Y29.502538071065988 I0 J0.44923857868020306
G3 X28.96954314720812 Y29.601522842639593 I-0.17258883248730966 J0.416243654822335
G3 X29.065989847715734 Y29.746192893401012 I-0.31725888324873097 J0.31725888324873097
G3 X29.101522842639596 Y29.918781725888323 I-0.416243654822335 J0.17258883248730966
G3 X29.065989847715734 Y30.091370558375633 I-0.44923857868020306 J0
G3 X28.96954314720812 Y30.236040609137053 I-0.416243654822335 J-0.17258883248730966
G3 X28.82233502538071 Y30.335025380710658 I-0.31725888324873097 J-0.31725888324873097
G3 X28.65228426395939 Y30.368020304568528 I-0.17258883248730966 J-0.416243654822335
G3 X28.47969543147208 Y30.335025380710658 I0 J-0.44923857868020306
G3 X28.33248730964467 Y30.236040609137053 I0.17258883248730966 J-0.416243654822335
G3 X28.236040609137056 Y30.091370558375633 I0.31725888324873097 J-0.31725888324873097
G3 X28.2005076142132 Y29.918781725888323 I0.416243654822335 J-0.17258883248730966
G0 Z3
G0 X25.661167512690355 Y29.919035532994926
G1 Z-1 F800
G3 X25.69543147208122 Y29.746192893401012 I0.44923857868020306 J0 F400
G3 X25.791878172588834 Y29.601522842639593 I0.416243654822335 J0.17258883248730966
G3 X25.939086294416246 Y29.502538071065988 I0.31725888324873097 J0.31725888324873097
G3 X26.111675126903556 Y29.469543147208125 I0.17258883248730966 J0.416243654822335
G3 X26.284263959390863 Y29.502538071065988 I0 J0.44923857868020306
G3 X26.428934010152286 Y29.601522842639593 I-0.17258883248730966 J0.416243654822335
G3 X26.52791878172589 Y29.746192893401012 I-0.31725888324873097 J0.31725888324873097
G3 X26.560913705583754 Y29.918781725888323 I-0.416243654822335 J0.17258883248730966
G3 X26.52791878172589 Y30.091370558375633 I-0.44923857868020306 J0
G3 X26.428934010152286 Y30.236040609137053 I-0.416243654822335 J-0.17258883248730966
G3 X26.284263959390863 Y30.335025380710658 I-0.31725888324873097 J-0.31725888324873097
G3 X26.111675126903556 Y30.368020304568528 I-0.17258883248730966 J-0.416243654822335
G3 X25.939086294416246 Y30.335025380710658 I0 J-0.44923857868020306
G3 X25.791878172588834 Y30.236040609137053 I0.17258883248730966 J-0.416243654822335
G3 X25.69543147208122 Y30.091370558375633 I0.31725888324873097 J-0.31725888324873097
G3 X25.66243654822335 Y29.918781725888323 I0.416243654822335 J-0.17258883248730966
G0 Z3
G0 X23.121319796954314 Y29.919035532994926
G1 Z-1 F800
G3 X23.15482233502538 Y29.746192893401012 I0.44923857868020306 J0 F400
G3 X23.253807106598984 Y29.601522842639593 I0.416243654822335 J0.17258883248730966
G3 X23.398477157360404 Y29.502538071065988 I0.31725888324873097 J0.31725888324873097
G3 X23.571065989847714 Y29.469543147208125 I0.17258883248730966 J0.416243654822335
G3 X23.743654822335024 Y29.502538071065988 I0 J0.44923857868020306
G3 X23.888324873096444 Y29.601522842639593 I-0.17258883248730966 J0.416243654822335
G3 X23.98730964467005 Y29.746192893401012 I-0.31725888324873097 J0.31725888324873097
G3 X24.02030456852792 Y29.918781725888323 I-0.416243654822335 J0.17258883248730966
G3 X23.98730964467005 Y30.091370558375633 I-0.44923857868020306 J0
G3 X23.888324873096444 Y30.236040609137053 I-0.416243654822335 J-0.17258883248730966
G3 X23.743654822335024 Y30.335025380710658 I-0.31725888324873097 J-0.31725888324873097
G3 X23.571065989847714 Y30.368020304568528 I-0.17258883248730966 J-0.416243654822335
G3 X23.398477157360404 Y30.335025380710658 I0 J-0.44923857868020306
G3 X23.253807106598984 Y30.236040609137053 I0.17258883248730966 J-0.416243654822335
G3 X23.15482233502538 Y30.091370558375633 I0.31725888324873097 J-0.31725888324873097
G3 X23.121827411167516 Y29.918781725888323 I0.416243654822335 J-0.17258883248730966
G0 Z3
G0 X40.10355329949238 Y4.519796954314721
G1 Z-1 F800
G3 X40.1497461928934 Y4.286802030456853 I0.6116751269035533 J0 F400
G3 X40.28172588832487 Y4.086294416243655 I0.565989847715736 J0.23350253807106597
G3 X40.48223350253807 Y3.9543147208121825 I0.434010152284264 J0.434010152284264
G3 X40.715736040609144 Y3.9086294416243654 I0.23350253807106597 J0.565989847715736
G3 X40.94923857868021 Y3.9543147208121825 I0 J0.6116751269035533
G3 X41.1497461928934 Y4.086294416243655 I-0.23350253807106597 J0.565989847715736
G3 X41.28172588832487 Y4.286802030456853 I-0.434010152284264 J0.434010152284264
G3 X41.32741116751269 Y4.520304568527918 I-0.565989847715736 J0.23350253807106597
G3 X41.28172588832487 Y4.753807106598985 I-0.6116751269035533 J0
G3 X41.1497461928934 Y4.951776649746193 I-0.565989847715736 J-0.23350253807106597
G3 X40.94923857868021 Y5.086294416243655 I-0.434010152284264 J-0.434010152284264
G3 X40.715736040609144 Y5.131979695431472 I-0.23350253807106597 J-0.565989847715736
G3 X40.48223350253807 Y5.086294416243655 I0 J-0.6116751269035533
G3 X40.28172588832487 Y4.951776649746193 I0.23350253807106597 J-0.565989847715736
G3 X40.1497461928934 Y4.753807106598985 I0.434010152284264 J-0.434010152284264
G3 X40.10406091370559 Y4.520304568527918 I0.565989847715736 J-0.23350253807106597
G0 Z3
G0 X35.02385786802031 Y4.519796954314721
G1 Z-1 F800
G3 X35.07106598984771 Y4.286802030456853 I0.6116751269035533 J0 F400
G3 X35.203045685279186 Y4.086294416243655 I0.565989847715736 J0.23350253807106597
G3 X35.401015228426395 Y3.9543147208121825 I0.434010152284264 J0.434010152284264
G3 X35.63705583756345 Y3.9086294416243654 I0.23350253807106597 J0.565989847715736
G3 X35.870558375634516 Y3.9543147208121825 I0 J0.6116751269035533
G3 X36.068527918781726 Y4.086294416243655 I-0.23350253807106597 J0.565989847715736
G3 X36.200507614213194 Y4.286802030456853 I-0.434010152284264 J0.434010152284264
G3 X36.248730964467 Y4.520304568527918 I-0.565989847715736 J0.23350253807106597
G3 X36.200507614213194 Y4.753807106598985 I-0.6116751269035533 J0
G3 X36.068527918781726 Y4.951776649746193 I-0.565989847715736 J-0.23350253807106597
G3 X35.870558375634516 Y5.086294416243655 I-0.434010152284264 J-0.434010152284264
G3 X35.63705583756345 Y5.131979695431472 I-0.23350253807106597 J-0.565989847715736
G3 X35.401015228426395 Y5.086294416243655 I0 J-0.6116751269035533
G3 X35.203045685279186 Y4.951776649746193 I0.23350253807106597 J-0.565989847715736
G3 X35.07106598984771 Y4.753807106598985 I0.434010152284264 J-0.434010152284264
G3 X35.022842639593904 Y4.520304568527918 I0.565989847715736 J-0.23350253807106597
G0 Z3
G0 X16.186548223350254 Y29.284010152284264
G1 Z-1 F800
G3 X16.215736040609137 Y29.131979695431475 I0.4010152284263959 J0 F400
G3 X16.304568527918782 Y29 I0.37055837563451777 J0.15228426395939088
G3 X16.434010152284266 Y28.913705583756343 I0.2817258883248731 J0.2817258883248731
G3 X16.586294416243653 Y28.883248730964468 I0.15228426395939088 J0.37055837563451777
G3 X16.738578680203048 Y28.913705583756343 I0 J0.4010152284263959
G3 X16.870558375634516 Y29 I-0.15228426395939088 J0.37055837563451777
G3 X16.956852791878173 Y29.131979695431475 I-0.2817258883248731 J0.2817258883248731
G3 X16.98730964467005 Y29.284263959390863 I-0.37055837563451777 J0.15228426395939088
G3 X16.956852791878173 Y29.436548223350254 I-0.4010152284263959 J0
G3 X16.870558375634516 Y29.565989847715738 I-0.37055837563451777 J-0.15228426395939088
G3 X16.738578680203048 Y29.65228426395939 I-0.2817258883248731 J-0.2817258883248731
G3 X16.586294416243653 Y29.68274111675127 I-0.15228426395939088 J-0.37055837563451777
G3 X16.434010152284266 Y29.65228426395939 I0 J-0.4010152284263959
G3 X16.304568527918782 Y29.565989847715738 I0.15228426395939088 J-0.37055837563451777
G3 X16.215736040609137 Y29.436548223350254 I0.2817258883248731 J-0.2817258883248731
G3 X16.185279187817258 Y29.284263959390863 I0.37055837563451777 J-0.15228426395939088
G0 Z3
G0 X18.686294416243655 Y29.284010152284264
G1 Z-1 F800
G3 X18.715736040609137 Y29.131979695431475 I0.4010152284263959 J0 F400
G3 X18.804568527918782 Y29 I0.37055837563451777 J0.15228426395939088
G3 X18.934010152284266 Y28.913705583756343 I0.2817258883248731 J0.2817258883248731
G3 X19.086294416243653 Y28.883248730964468 I0.15228426395939088 J0.37055837563451777
G3 X19.238578680203048 Y28.913705583756343 I0 J0.4010152284263959
G3 X19.368020304568528 Y29 I-0.15228426395939088 J0.37055837563451777
G3 X19.456852791878173 Y29.131979695431475 I-0.2817258883248731 J0.2817258883248731
G3 X19.48730964467005 Y29.284263959390863 I-0.37055837563451777 J0.15228426395939088
G3 X19.456852791878173 Y29.436548223350254 I-0.4010152284263959 J0
G3 X19.368020304568528 Y29.565989847715738 I-0.37055837563451777 J-0.15228426395939088
G3 X19.238578680203048 Y29.65228426395939 I-0.2817258883248731 J-0.2817258883248731
G3 X19.086294416243653 Y29.68274111675127 I-0.15228426395939088 J-0.37055837563451777
G3 X18.934010152284266 Y29.65228426395939 I0 J-0.4010152284263959
G3 X18.804568527918782 Y29.565989847715738 I0.15228426395939088 J-0.37055837563451777
G3 X18.715736040609137 Y29.436548223350254 I0.2817258883248731 J-0.2817258883248731
G3 X18.685279187817258 Y29.284263959390863 I0.37055837563451777 J-0.15228426395939088
G0 Z3
G0 X6.661928934010152 Y19.124365482233504
G1 Z-1 F800
G3 X6.692893401015229 Y18.972081218274113 I0.4010152284263959 J0 F400
G3 X6.779187817258884 Y18.84263959390863 I0.37055837563451777 J0.15228426395939088
G3 X6.908629441624365 Y18.753807106598984 I0.2817258883248731 J0.2817258883248731
G3 X7.060913705583757 Y18.72335025380711 I0.15228426395939088 J0.37055837563451777
G3 X7.215736040609137 Y18.753807106598984 I0 J0.4010152284263959
G3 X7.345177664974619 Y18.84263959390863 I-0.15228426395939088 J0.37055837563451777
G3 X7.431472081218274 Y18.972081218274113 I-0.2817258883248731 J0.2817258883248731
G3 X7.461928934010152 Y19.124365482233504 I-0.37055837563451777 J0.15228426395939088
G3 X7.431472081218274 Y19.276649746192895 I-0.4010152284263959 J0
G3 X7.345177664974619 Y19.406091370558375 I-0.37055837563451777 J-0.15228426395939088
G3 X7.215736040609137 Y19.49492385786802 I-0.2817258883248731 J-0.2817258883248731
G3 X7.060913705583757 Y19.5253807106599 I-0.15228426395939088 J-0.37055837563451777
G3 X6.908629441624365 Y19.49492385786802 I0 J-0.4010152284263959
G3 X6.779187817258884 Y19.406091370558375 I0.15228426395939088 J-0.37055837563451777
G3 X6.692893401015229 Y19.276649746192895 I0.2817258883248731 J-0.2817258883248731
G3 X6.662436548223351 Y19.124365482233504 I0.37055837563451777 J-0.15228426395939088
G0 Z3
G0 X4.161928934010152 Y19.124365482233504
G1 Z-1 F800
G3 X4.192893401015229 Y18.972081218274113 I0.4010152284263959 J0 F400
G3 X4.279187817258883 Y18.84263959390863 I0.37055837563451777 J0.15228426395939088
G3 X4.408629441624365 Y18.753807106598984 I0.2817258883248731 J0.2817258883248731
G3 X4.560913705583756 Y18.72335025380711 I0.15228426395939088 J0.37055837563451777
G3 X4.715736040609137 Y18.753807106598984 I0 J0.4010152284263959
G3 X4.845177664974619 Y18.84263959390863 I-0.15228426395939088 J0.37055837563451777
G3 X4.931472081218274 Y18.972081218274113 I-0.2817258883248731 J0.2817258883248731
G3 X4.961928934010152 Y19.124365482233504 I-0.37055837563451777 J0.15228426395939088
G3 X4.931472081218274 Y19.276649746192895 I-0.4010152284263959 J0
G3 X4.845177664974619 Y19.406091370558375 I-0.37055837563451777 J-0.15228426395939088
G3 X4.715736040609137 Y19.49492385786802 I-0.2817258883248731 J-0.2817258883248731
G3 X4.560913705583756 Y19.5253807106599 I-0.15228426395939088 J-0.37055837563451777
G3 X4.408629441624365 Y19.49492385786802 I0 J-0.4010152284263959
G3 X4.279187817258883 Y19.406091370558375 I0.15228426395939088 J-0.37055837563451777
G3 X4.192893401015229 Y19.276649746192895 I0.2817258883248731 J-0.2817258883248731
G3 X4.162436548223351 Y19.124365482233504 I0.37055837563451777 J-0.15228426395939088
G0 Z3
G0 X9.836802030456854 Y9.5997461928934
G1 Z-1 F800
G3 X9.868020304568528 Y9.446700507614214 I0.4010152284263959 J0 F400
G3 X9.954314720812183 Y9.317258883248732 I0.37055837563451777 J0.15228426395939088
G3 X10.083756345177665 Y9.230964467005077 I0.2817258883248731 J0.2817258883248731
G3 X10.236040609137056 Y9.200507614213198 I0.15228426395939088 J0.37055837563451777
G3 X10.390862944162436 Y9.230964467005077 I0 J0.4010152284263959
G3 X10.52030456852792 Y9.317258883248732 I-0.15228426395939088 J0.37055837563451777
G3 X10.606598984771573 Y9.446700507614214 I-0.2817258883248731 J0.2817258883248731
G3 X10.637055837563452 Y9.598984771573605 I-0.37055837563451777 J0.15228426395939088
G3 X10.606598984771573 Y9.753807106598986 I-0.4010152284263959 J0
G3 X10.52030456852792 Y9.883248730964468 I-0.37055837563451777 J-0.15228426395939088
G3 X10.390862944162436 Y9.969543147208121 I-0.2817258883248731 J-0.2817258883248731
G3 X10.236040609137056 Y10 I-0.15228426395939088 J-0.37055837563451777
G3 X10.083756345177665 Y9.969543147208121 I0 J-0.4010152284263959
G3 X9.954314720812183 Y9.883248730964468 I0.15228426395939088 J-0.37055837563451777
G3 X9.868020304568528 Y9.753807106598986 I0.2817258883248731 J-0.2817258883248731
G3 X9.83756345177665 Y9.598984771573605 I0.37055837563451777 J-0.15228426395939088
G0 Z3
G0 X9.836802030456854 Y12.099492385786801
G1 Z-1 F800
G3 X9.868020304568528 Y11.946700507614214 I0.4010152284263959 J0 F400
G3 X9.954314720812183 Y11.817258883248732 I0.37055837563451777 J0.15228426395939088
G3 X10.083756345177665 Y11.730964467005077 I0.2817258883248731 J0.2817258883248731
G3 X10.236040609137056 Y11.700507614213198 I0.15228426395939088 J0.37055837563451777
G3 X10.390862944162436 Y11.730964467005077 I0 J0.4010152284263959
G3 X10.52030456852792 Y11.817258883248732 I-0.15228426395939088 J0.37055837563451777
G3 X10.606598984771573 Y11.946700507614214 I-0.2817258883248731 J0.2817258883248731
G3 X10.637055837563452 Y12.098984771573605 I-0.37055837563451777 J0.15228426395939088
G3 X10.606598984771573 Y12.251269035532994 I-0.4010152284263959 J0
G3 X10.52030456852792 Y12.383248730964468 I-0.37055837563451777 J-0.15228426395939088
G3 X10.390862944162436 Y12.469543147208121 I-0.2817258883248731 J-0.2817258883248731
G3 X10.236040609137056 Y12.5 I-0.15228426395939088 J-0.37055837563451777
G3 X10.083756345177665 Y12.469543147208121 I0 J-0.4010152284263959
G3 X9.954314720812183 Y12.383248730964468 I0.15228426395939088 J-0.37055837563451777
G3 X9.868020304568528 Y12.251269035532994 I0.2817258883248731 J-0.2817258883248731
G3 X9.83756345177665 Y12.098984771573605 I0.37055837563451777 J-0.15228426395939088
G0 Z3
G0 X6.661928934010152 Y24.204060913705582
G1 Z-1 F800
G3 X6.692893401015229 Y24.050761421319798 I0.4010152284263959 J0 F400
G3 X6.779187817258884 Y23.921319796954315 I0.37055837563451777 J0.15228426395939088
G3 X6.908629441624365 Y23.83502538071066 I0.2817258883248731 J0.2817258883248731
G3 X7.060913705583757 Y23.804568527918782 I0.15228426395939088 J0.37055837563451777
G3 X7.215736040609137 Y23.83502538071066 I0 J0.4010152284263959
G3 X7.345177664974619 Y23.921319796954315 I-0.15228426395939088 J0.37055837563451777
G3 X7.431472081218274 Y24.050761421319798 I-0.2817258883248731 J0.2817258883248731
G3 X7.461928934010152 Y24.203045685279186 I-0.37055837563451777 J0.15228426395939088
G3 X7.431472081218274 Y24.35786802030457 I-0.4010152284263959 J0
G3 X7.345177664974619 Y24.487309644670052 I-0.37055837563451777 J-0.15228426395939088
G3 X7.215736040609137 Y24.57360406091371 I-0.2817258883248731 J-0.2817258883248731
G3 X7.060913705583757 Y24.604060913705585 I-0.15228426395939088 J-0.37055837563451777
G3 X6.908629441624365 Y24.57360406091371 I0 J-0.4010152284263959
G3 X6.779187817258884 Y24.487309644670052 I0.15228426395939088 J-0.37055837563451777
G3 X6.692893401015229 Y24.35786802030457 I0.2817258883248731 J-0.2817258883248731
G3 X6.662436548223351 Y24.203045685279186 I0.37055837563451777 J-0.15228426395939088
G0 Z3
G0 X4.161928934010152 Y24.204060913705582
G1 Z-1 F800
G3 X4.192893401015229 Y24.050761421319798 I0.4010152284263959 J0 F400
G3 X4.279187817258883 Y23.921319796954315 I0.37055837563451777 J0.15228426395939088
G3 X4.408629441624365 Y23.83502538071066 I0.2817258883248731 J0.2817258883248731
G3 X4.560913705583756 Y23.804568527918782 I0.15228426395939088 J0.37055837563451777
G3 X4.715736040609137 Y23.83502538071066 I0 J0.4010152284263959
G3 X4.845177664974619 Y23.921319796954315 I-0.15228426395939088 J0.37055837563451777
G3 X4.931472081218274 Y24.050761421319798 I-0.2817258883248731 J0.2817258883248731
G3 X4.961928934010152 Y24.203045685279186 I-0.37055837563451777 J0.15228426395939088
G3 X4.931472081218274 Y24.35786802030457 I-0.4010152284263959 J0
G3 X4.845177664974619 Y24.487309644670052 I-0.37055837563451777 J-0.15228426395939088
G3 X4.715736040609137 Y24.57360406091371 I-0.2817258883248731 J-0.2817258883248731
G3 X4.560913705583756 Y24.604060913705585 I-0.15228426395939088 J-0.37055837563451777
G3 X4.408629441624365 Y24.57360406091371 I0 J-0.4010152284263959
G3 X4.279187817258883 Y24.487309644670052 I0.15228426395939088 J-0.37055837563451777
G3 X4.192893401015229 Y24.35786802030457 I0.2817258883248731 J-0.2817258883248731
G3 X4.162436548223351 Y24.203045685279186 I0.37055837563451777 J-0.15228426395939088
G0 Z3
G0 X44.71065989847716 Y42.9994923857868
G1 Z-1 F800
G3 X44.743654822335024 Y42.827411167512686 I0.44923857868020306 J0 F400
G3 X44.84263959390863 Y42.680203045685275 I0.416243654822335 J0.17258883248730966
G3 X44.98730964467005 Y42.58375634517766 I0.31725888324873097 J0.31725888324873097
G3 X45.15989847715736 Y42.54822335025381 I0.17258883248730966 J0.416243654822335
G3 X45.33248730964467 Y42.58375634517766 I0 J0.44923857868020306
G3 X45.47969543147208 Y42.680203045685275 I-0.17258883248730966 J0.416243654822335
G3 X45.576142131979694 Y42.827411167512686 I-0.31725888324873097 J0.31725888324873097
G3 X45.61167512690355 Y43 I-0.416243654822335 J0.17258883248730966
G3 X45.576142131979694 Y43.17258883248731 I-0.44923857868020306 J0
G3 X45.47969543147208 Y43.317258883248726 I-0.416243654822335 J-0.17258883248730966
G3 X45.33248730964467 Y43.41624365482233 I-0.31725888324873097 J-0.31725888324873097
G3 X45.15989847715736 Y43.44923857868021 I-0.17258883248730966 J-0.416243654822335
